;FLAVOR:Marlin
;TIME:9117
;Filament used: 1.68977m
;Layer height: 0.15
;MINX:87.714
;MINY:99.512
;MINZ:0.2
;MAXX:198.128
;MAXY:137.307
;MAXZ:108.65
;TARGET_MACHINE.NAME:Creality Ender-3
;Generated with Cura_SteamEngine 5.6.0
M140 S65
M105
M190 S65
M104 S230
M105
M109 S230
M82 ;absolute extrusion mode
; Ender 3 Custom Start G-code
G92 E0 ; Reset Extruder
G28 ; Home all axes
G1 Z2.0 F3000 ; Move Z Axis up little to prevent scratching of Heat Bed
G1 X0.1 Y20 Z0.3 F5000.0 ; Move to start position
G1 X0.1 Y200.0 Z0.3 F1500.0 E15 ; Draw the first line
G1 X0.4 Y200.0 Z0.3 F5000.0 ; Move to side a little
G1 X0.4 Y20 Z0.3 F1500.0 E30 ; Draw the second line
G92 E0 ; Reset Extruder
G1 Z2.0 F3000 ; Move Z Axis up little to prevent scratching of Heat Bed
G1 X5 Y20 Z0.3 F5000.0 ; Move over to prevent blob squish
G92 E0
G92 E0
;LAYER_COUNT:724
;LAYER:0
M107
M204 S500
G0 F3000 X89.08 Y103.915 Z0.2
M204 S100
;TYPE:SKIRT
G1 F1200 X89.922 Y103.253 E0.01459
G1 X90.511 Y102.918 E0.02382
G1 X91.265 Y102.735 E0.03438
G1 X92 Y102.736 E0.0444
G1 X93.13 Y103.017 E0.06025
G1 X93.334 Y102.865 E0.06372
G1 X93.736 Y102.521 E0.07093
G1 X94.243 Y102.12 E0.07973
G1 X94.523 Y101.929 E0.08435
G1 X95.042 Y101.624 E0.09255
G1 X95.496 Y101.394 E0.09948
G1 X96.429 Y100.989 E0.11333
G1 X97.949 Y100.437 E0.13536
G1 X99.841 Y99.849 E0.16234
G1 X101.073 Y99.841 E0.17912
G1 X107.141 Y100.685 E0.26256
G1 X108.259 Y100.852 E0.27796
G1 X109.578 Y101.083 E0.2962
G1 X109.876 Y101.117 E0.30028
G1 X110.398 Y101.203 E0.30749
G1 X111.719 Y101.375 E0.32563
G1 X113.316 Y101.636 E0.34767
G1 X117.868 Y102.288 E0.4103
G1 X122.315 Y103.097 E0.47186
G1 X126.781 Y103.979 E0.53387
G1 X127.679 Y104.174 E0.54638
G1 X130.705 Y104.869 E0.58867
G1 X133.111 Y105.407 E0.62225
G1 X133.552 Y105.616 E0.6289
G1 X133.977 Y106.13 E0.63798
G1 X134.209 Y106.579 E0.64486
G1 X134.209 Y108.055 E0.66497
G1 X134.103 Y108.531 E0.67161
G1 X133.697 Y109.057 E0.68066
G1 X133.31 Y109.38 E0.68752
G1 X129.556 Y110.25 E0.74001
G1 X127.577 Y110.686 E0.76761
G1 X125.184 Y111.181 E0.80089
G1 X121.724 Y111.846 E0.84888
G1 X117.893 Y112.545 E0.90192
G1 X116.639 Y112.725 E0.91917
G1 X116.23 Y112.796 E0.92483
G1 X112.475 Y113.347 E0.97652
G1 X111.887 Y113.42 E0.98459
G1 X108.713 Y113.926 E1.02836
G1 X105.109 Y114.449 E1.07797
G1 X101.02 Y115.003 E1.13417
G1 X99.822 Y114.988 E1.15048
G1 X97.388 Y114.208 E1.1853
G1 X95.851 Y113.604 E1.20779
G1 X95.314 Y113.352 E1.21587
G1 X94.589 Y112.949 E1.22717
G1 X94.189 Y112.681 E1.23372
G1 X93.723 Y112.309 E1.24184
G1 X93.39 Y112.028 E1.24778
G1 X92.055 Y112.306 E1.26635
G1 X91.292 Y112.241 E1.27678
G1 X90.697 Y112.06 E1.28525
G1 X90.097 Y111.819 E1.29406
G1 X88.902 Y110.859 E1.31494
G1 X88.398 Y110.167 E1.3266
G1 X87.934 Y108.952 E1.34431
G1 X87.714 Y107.953 E1.35824
G1 X87.879 Y106.439 E1.37898
G1 X88.071 Y105.692 E1.38949
G1 X88.539 Y104.584 E1.40587
G1 X89.08 Y103.915 E1.41759
M204 S500
G0 F3000 X89.375 Y104.218
M204 S100
G1 F1200 X90.182 Y103.583 E1.43158
G1 X90.666 Y103.312 E1.43913
G1 X91.314 Y103.155 E1.44821
G1 X91.947 Y103.156 E1.45683
G1 X93.221 Y103.473 E1.47471
G1 X93.593 Y103.196 E1.48103
G1 X93.997 Y102.85 E1.48828
G1 X94.48 Y102.467 E1.49667
G1 X94.76 Y102.276 E1.50129
G1 X95.232 Y101.999 E1.50874
G1 X95.686 Y101.769 E1.51567
G1 X96.572 Y101.384 E1.52883
G1 X98.074 Y100.838 E1.5506
G1 X99.906 Y100.269 E1.57673
G1 X101.076 Y100.261 E1.59266
G1 X107.079 Y101.1 E1.67522
G1 X108.187 Y101.266 E1.69048
G1 X109.509 Y101.497 E1.70876
G1 X109.808 Y101.531 E1.71285
G1 X110.335 Y101.618 E1.72013
G1 X111.651 Y101.79 E1.73821
G1 X113.248 Y102.051 E1.76025
G1 X117.793 Y102.701 E1.82278
G1 X122.234 Y103.509 E1.88426
G1 X126.692 Y104.39 E1.94615
G1 X127.585 Y104.583 E1.95859
G1 X130.613 Y105.279 E2.00091
G1 X132.976 Y105.807 E2.03389
G1 X133.286 Y105.954 E2.03856
G1 X133.626 Y106.365 E2.04583
G1 X133.789 Y106.681 E2.05067
G1 X133.789 Y108.009 E2.06876
G1 X133.714 Y108.347 E2.07347
G1 X133.39 Y108.767 E2.0807
G1 X133.118 Y108.993 E2.08551
G1 X129.466 Y109.84 E2.13657
G1 X127.492 Y110.275 E2.1641
G1 X125.105 Y110.769 E2.1973
G1 X121.649 Y111.433 E2.24524
G1 X117.833 Y112.129 E2.29807
G1 X116.579 Y112.309 E2.31532
G1 X116.169 Y112.38 E2.32099
G1 X112.424 Y112.93 E2.37254
G1 X111.825 Y113.004 E2.38076
G1 X108.653 Y113.51 E2.42451
G1 X105.052 Y114.033 E2.47407
G1 X101.025 Y114.583 E2.52943
G1 X99.89 Y114.569 E2.54489
G1 X97.542 Y113.817 E2.57847
G1 X96.005 Y113.213 E2.60096
G1 X95.493 Y112.972 E2.60867
G1 X94.822 Y112.599 E2.61913
G1 X94.451 Y112.352 E2.6252
G1 X93.999 Y111.992 E2.63307
G1 X93.75 Y111.775 E2.63757
G1 X93.443 Y111.537 E2.64286
G1 X93.237 Y111.631 E2.64594
G1 X92.031 Y111.882 E2.66272
G1 X91.37 Y111.826 E2.67175
G1 X90.854 Y111.67 E2.6791
G1 X90.309 Y111.451 E2.68709
G1 X89.21 Y110.568 E2.7063
G1 X88.771 Y109.965 E2.71646
G1 X88.344 Y108.861 E2.73258
G1 X88.139 Y107.932 E2.74553
G1 X88.297 Y106.485 E2.76536
G1 X88.458 Y105.855 E2.77422
G1 X88.903 Y104.801 E2.7898
G1 X89.375 Y104.218 E2.80002
M204 S500
G0 F3000 X89.67 Y104.52
M204 S100
G1 F1200 X90.387 Y103.95 E2.81249
G1 X90.823 Y103.706 E2.8193
G1 X91.363 Y103.575 E2.82686
G1 X91.894 Y103.576 E2.8341
G1 X93.069 Y103.868 E2.85059
G1 X93.268 Y103.996 E2.85381
G1 X93.519 Y103.769 E2.85842
G1 X93.855 Y103.524 E2.86408
G1 X94.258 Y103.179 E2.87131
G1 X94.717 Y102.814 E2.87929
G1 X94.997 Y102.623 E2.88391
G1 X95.422 Y102.374 E2.89062
G1 X95.876 Y102.144 E2.89755
G1 X96.716 Y101.779 E2.91003
G1 X98.199 Y101.239 E2.93152
G1 X99.971 Y100.689 E2.95679
G1 X101.079 Y100.681 E2.97188
G1 X105.042 Y101.245 E3.0264
G1 X107.017 Y101.515 E3.05355
G1 X108.115 Y101.68 E3.06868
G1 X109.44 Y101.911 E3.087
G1 X109.739 Y101.945 E3.09109
G1 X110.271 Y102.033 E3.09844
G1 X111.583 Y102.205 E3.11646
G1 X113.18 Y102.466 E3.1385
G1 X117.718 Y103.114 E3.20093
G1 X122.153 Y103.921 E3.26233
G1 X126.604 Y104.801 E3.32413
G1 X127.491 Y104.992 E3.33649
G1 X130.521 Y105.689 E3.37883
G1 X132.837 Y106.207 E3.41116
G1 X133.023 Y106.295 E3.41396
G1 X133.272 Y106.595 E3.41927
G1 X133.369 Y106.784 E3.42216
G1 X133.369 Y107.963 E3.43822
G1 X133.324 Y108.165 E3.44104
G1 X133.087 Y108.472 E3.44632
G1 X132.925 Y108.607 E3.44919
G1 X129.376 Y109.43 E3.49881
G1 X127.407 Y109.864 E3.52627
G1 X125.026 Y110.357 E3.55939
G1 X121.574 Y111.02 E3.60727
G1 X117.773 Y111.713 E3.65989
G1 X116.516 Y111.893 E3.67719
G1 X116.108 Y111.964 E3.68283
G1 X112.372 Y112.513 E3.73426
G1 X111.766 Y112.588 E3.74257
G1 X108.593 Y113.094 E3.78634
G1 X104.995 Y113.617 E3.83586
G1 X101.03 Y114.163 E3.89037
G1 X99.958 Y114.15 E3.90497
G1 X97.695 Y113.426 E3.93733
G1 X96.184 Y112.833 E3.95944
G1 X95.672 Y112.592 E3.96715
G1 X95.055 Y112.249 E3.97676
G1 X94.684 Y112.002 E3.98283
G1 X94.275 Y111.676 E3.98996
G1 X94.008 Y111.443 E3.99478
G1 X93.481 Y111.033 E4.00388
G1 X93.151 Y111.22 E4.00904
G1 X92.004 Y111.459 E4.025
G1 X91.454 Y111.412 E4.03252
G1 X91.011 Y111.28 E4.03881
G1 X90.524 Y111.084 E4.04596
G1 X89.516 Y110.275 E4.06357
G1 X89.142 Y109.761 E4.07223
G1 X88.754 Y108.77 E4.08672
G1 X88.564 Y107.91 E4.09872
G1 X88.705 Y106.586 E4.11685
G1 X88.845 Y106.018 E4.12482
G1 X89.267 Y105.018 E4.1396
G1 X89.67 Y104.52 E4.14833
M204 S500
G0 F3000 X90.267 Y105.117
M204 S100
G1 F1200 X90.856 Y104.643 E4.15863
G1 X91.132 Y104.495 E4.16289
G1 X91.461 Y104.415 E4.1675
G1 X91.788 Y104.416 E4.17196
G1 X92.746 Y104.654 E4.1854
G1 X92.599 Y105.027 E4.19086
G1 X92.682 Y105.211 E4.19361
G1 X92.392 Y105.721 E4.2016
G1 X92.247 Y106.077 E4.20684
G1 X92.048 Y106.785 E4.21685
G1 X91.744 Y106.838 E4.22106
G1 X91.896 Y107.41 E4.22912
G1 X91.734 Y107.998 E4.23742
G1 X92.069 Y108.045 E4.24203
G1 X92.17 Y108.506 E4.24846
G1 X92.289 Y108.879 E4.25379
G1 X92.468 Y109.264 E4.25957
G1 X92.817 Y109.833 E4.26867
G1 X92.721 Y110.028 E4.27163
G1 X92.865 Y110.422 E4.27734
G1 X91.951 Y110.613 E4.29006
G1 X91.618 Y110.584 E4.29461
G1 X91.289 Y110.488 E4.29928
G1 X90.957 Y110.353 E4.30416
G1 X90.128 Y109.689 E4.31863
G1 X89.881 Y109.349 E4.32435
G1 X89.574 Y108.588 E4.33553
G1 X89.414 Y107.863 E4.34564
G1 X89.531 Y106.73 E4.36115
G1 X89.66 Y106.223 E4.36828
G1 X89.993 Y105.456 E4.37967
G1 X90.267 Y105.117 E4.3856
M204 S500
G0 F3000 X89.967 Y104.82
M204 S100
G1 F1200 X90.593 Y104.316 E4.39655
G1 X90.978 Y104.1 E4.40256
G1 X91.412 Y103.995 E4.40864
G1 X91.841 Y103.996 E4.41449
G1 X92.968 Y104.276 E4.4303
G1 X93.213 Y104.581 E4.43563
G1 X93.439 Y104.408 E4.43951
G1 X93.766 Y104.108 E4.44555
G1 X94.12 Y103.85 E4.45152
G1 X94.519 Y103.508 E4.45867
G1 X94.978 Y103.143 E4.46666
G1 X95.21 Y102.985 E4.47048
G1 X95.612 Y102.749 E4.47683
G1 X96.066 Y102.519 E4.48377
G1 X96.86 Y102.174 E4.49556
G1 X98.343 Y101.634 E4.51705
G1 X100.035 Y101.109 E4.54118
G1 X101.082 Y101.101 E4.55544
G1 X104.982 Y101.661 E4.6091
G1 X106.954 Y101.93 E4.63621
G1 X108.043 Y102.094 E4.65121
G1 X109.371 Y102.325 E4.66957
G1 X109.67 Y102.359 E4.67367
G1 X110.207 Y102.448 E4.68108
G1 X111.515 Y102.62 E4.69905
G1 X113.112 Y102.881 E4.72109
G1 X117.643 Y103.527 E4.78343
G1 X122.072 Y104.333 E4.84474
G1 X126.516 Y105.212 E4.90644
G1 X127.397 Y105.401 E4.91871
G1 X130.429 Y106.099 E4.96109
G1 X132.745 Y106.617 E4.99341
G1 X132.949 Y106.863 E4.99777
G1 X132.949 Y107.963 E5.01275
G1 X132.754 Y108.216 E5.0171
G1 X129.286 Y109.02 E5.06559
G1 X127.322 Y109.453 E5.09298
G1 X124.947 Y109.945 E5.12601
G1 X121.499 Y110.607 E5.17383
G1 X117.713 Y111.297 E5.22625
G1 X116.456 Y111.477 E5.24354
G1 X116.047 Y111.548 E5.2492
G1 X112.32 Y112.096 E5.3005
G1 X111.707 Y112.172 E5.30892
G1 X108.533 Y112.678 E5.35269
G1 X104.937 Y113.201 E5.40218
G1 X101.035 Y113.743 E5.45584
G1 X100.026 Y113.731 E5.46958
G1 X97.848 Y113.035 E5.50073
G1 X96.363 Y112.453 E5.52245
G1 X95.851 Y112.212 E5.53016
G1 X95.288 Y111.899 E5.53893
G1 X94.917 Y111.652 E5.545
G1 X94.551 Y111.36 E5.55138
G1 X94.274 Y111.118 E5.55639
G1 X93.953 Y110.868 E5.56193
G1 X93.258 Y110.275 E5.57437
G1 X93.229 Y110.632 E5.57925
G1 X93.065 Y110.809 E5.58254
G1 X91.977 Y111.036 E5.59768
G1 X91.537 Y110.998 E5.60369
G1 X91.131 Y110.877 E5.60946
G1 X90.74 Y110.718 E5.61521
G1 X89.822 Y109.982 E5.63123
G1 X89.512 Y109.556 E5.63841
G1 X89.164 Y108.679 E5.65126
G1 X88.989 Y107.887 E5.66231
G1 X89.113 Y106.687 E5.67874
G1 X89.253 Y106.119 E5.68671
G1 X89.631 Y105.235 E5.6998
G1 X89.967 Y104.82 E5.70707
M204 S500
G0 F3000 X92.636 Y106.246
M204 S100
G1 F1200 X92.783 Y105.881 E5.71243
G1 X93.063 Y105.389 E5.72014
G1 X93.368 Y105.019 E5.72668
G1 X93.575 Y104.833 E5.73047
G1 X93.713 Y104.727 E5.73284
G1 X94.05 Y104.418 E5.73906
G1 X94.382 Y104.178 E5.74464
G1 X94.781 Y103.836 E5.7518
G1 X95.216 Y103.489 E5.75938
G1 X95.423 Y103.347 E5.7628
G1 X95.802 Y103.124 E5.76879
G1 X96.256 Y102.894 E5.77572
G1 X97.004 Y102.569 E5.78683
G1 X98.487 Y102.029 E5.80832
G1 X100.099 Y101.529 E5.83131
G1 X101.022 Y101.517 E5.84388
G1 X104.922 Y102.077 E5.89755
G1 X106.891 Y102.345 E5.92461
G1 X107.971 Y102.508 E5.93949
G1 X109.302 Y102.739 E5.95789
G1 X109.602 Y102.773 E5.962
G1 X110.148 Y102.863 E5.96953
G1 X111.447 Y103.034 E5.98738
G1 X113.053 Y103.297 E6.00954
G1 X117.568 Y103.94 E6.07166
G1 X121.99 Y104.745 E6.13288
G1 X126.428 Y105.623 E6.19449
G1 X127.303 Y105.81 E6.20668
G1 X130.337 Y106.509 E6.24909
G1 X132.529 Y106.999 E6.27968
G1 X132.529 Y107.837 E6.29109
G1 X129.196 Y108.61 E6.33769
G1 X127.237 Y109.042 E6.36502
G1 X124.868 Y109.533 E6.39797
G1 X121.424 Y110.194 E6.44573
G1 X117.654 Y110.881 E6.49792
G1 X116.389 Y111.062 E6.51533
G1 X115.986 Y111.132 E6.5209
G1 X112.269 Y111.679 E6.57207
G1 X111.645 Y111.756 E6.58063
G1 X108.473 Y112.262 E6.62438
G1 X104.879 Y112.785 E6.67385
G1 X101.04 Y113.323 E6.72665
G1 X100.094 Y113.312 E6.73953
G1 X98.001 Y112.644 E6.76946
G1 X96.542 Y112.073 E6.79079
G1 X96.03 Y111.832 E6.7985
G1 X95.52 Y111.549 E6.80645
G1 X95.178 Y111.323 E6.81203
G1 X94.827 Y111.044 E6.81814
G1 X94.532 Y110.786 E6.82347
G1 X94.226 Y110.548 E6.82875
G1 X93.35 Y109.801 E6.84443
G1 X93.1 Y109.491 E6.84986
G1 X92.847 Y109.079 E6.85644
G1 X92.675 Y108.708 E6.86201
G1 X92.575 Y108.392 E6.86653
G1 X92.522 Y108.131 E6.87015
G1 X92.359 Y107.522 E6.87874
G1 X92.357 Y107.313 E6.88159
G1 X92.531 Y106.675 E6.89059
G1 X92.636 Y106.246 E6.89661
M204 S500
G0 F3000 X97.514 Y107.398
M204 S100
G1 F1200 X97.57 Y107.622 E6.89976
G1 X97.676 Y107.83 E6.90293
G1 X97.841 Y107.989 E6.90606
G1 X98.046 Y108.094 E6.90919
G1 X98.417 Y108.099 E6.91425
G1 X98.688 Y107.926 E6.91863
G1 X98.828 Y107.749 E6.9217
G1 X98.903 Y107.53 E6.92485
G1 X98.903 Y107.306 E6.9279
G1 X98.827 Y107.086 E6.93107
G1 X98.683 Y106.903 E6.93424
G1 X98.5 Y106.775 E6.93729
G1 X98.225 Y106.731 E6.94108
G1 X98.005 Y106.768 E6.94412
G1 X97.793 Y106.883 E6.9474
G1 X97.6 Y107.13 E6.95167
G1 X97.514 Y107.398 E6.95551
M204 S500
G0 F3000 X98.071 Y107.21
M204 S100
G1 F1200 X97.95 Y107.413 E6.95872
G1 X98.22 Y107.767 E6.96479
G1 X98.483 Y107.461 E6.97028
G1 X98.339 Y107.175 E6.97464
G1 X98.071 Y107.21 E6.97833
M204 S500
G0 F3000 X154.73 Y106.731
M204 S100
G1 F1200 X154.905 Y106.215 E6.98575
G1 X155.24 Y105.779 E6.99324
G1 X155.635 Y105.449 E7.00025
G1 X158.707 Y104.764 E7.04311
G1 X161.17 Y104.198 E7.07753
G1 X161.925 Y104.036 E7.08805
G1 X166.589 Y103.115 E7.1528
G1 X169.988 Y102.496 E7.19986
G1 X172.12 Y102.191 E7.22919
G1 X172.325 Y102.154 E7.23203
G1 X175.548 Y101.699 E7.27636
G1 X177.408 Y101.392 E7.30204
G1 X178.463 Y101.255 E7.31653
G1 X179.172 Y101.138 E7.32631
G1 X179.338 Y101.122 E7.32859
G1 X180.419 Y100.935 E7.34353
G1 X181.953 Y100.699 E7.36467
G1 X187.879 Y99.875 E7.44616
G1 X188.965 Y99.881 E7.46095
G1 X190.876 Y100.476 E7.48821
G1 X192.458 Y101.05 E7.51113
G1 X193.118 Y101.335 E7.52092
G1 X193.703 Y101.623 E7.5298
G1 X194.074 Y101.83 E7.53559
G1 X194.62 Y102.19 E7.5445
G1 X195.111 Y102.583 E7.55306
G1 X195.42 Y102.847 E7.5586
G1 X195.861 Y103.176 E7.56609
G1 X196.055 Y103.35 E7.56964
G1 X196.274 Y103.525 E7.57346
G1 X196.701 Y103.932 E7.58149
G1 X197.083 Y104.401 E7.58973
G1 X197.541 Y105.186 E7.60211
G1 X197.653 Y105.438 E7.60587
G1 X197.78 Y105.787 E7.61092
G1 X197.916 Y106.289 E7.61801
G1 X197.95 Y106.469 E7.6205
G1 X198.115 Y107.064 E7.62891
G1 X198.128 Y107.734 E7.63804
G1 X197.957 Y108.357 E7.64684
G1 X197.889 Y108.672 E7.65123
G1 X197.662 Y109.381 E7.66137
G1 X197.467 Y109.805 E7.66772
G1 X196.979 Y110.6 E7.68043
G1 X196.492 Y111.116 E7.69009
G1 X196.326 Y111.258 E7.69307
G1 X196.343 Y117.91 E7.78367
G1 X196.04 Y125.447 E7.88641
G1 X195.416 Y132.949 E7.98894
G1 X195.367 Y133.288 E7.9936
G1 X195.24 Y133.815 E8.00098
G1 X195.126 Y134.154 E8.00586
G1 X194.983 Y134.491 E8.01084
G1 X194.73 Y134.958 E8.01808
G1 X194.503 Y135.299 E8.02365
G1 X194.241 Y135.629 E8.02939
G1 X193.969 Y135.917 E8.03479
G1 X193.754 Y136.115 E8.03877
G1 X193.324 Y136.447 E8.04617
G1 X193.069 Y136.61 E8.05029
G1 X192.603 Y136.859 E8.05749
G1 X192.289 Y136.99 E8.06212
G1 X191.83 Y137.139 E8.06869
G1 X191.495 Y137.217 E8.07338
G1 X191.067 Y137.28 E8.07927
G1 X190.603 Y137.307 E8.0856
G1 X190.196 Y137.295 E8.09115
G1 X189.86 Y137.258 E8.09575
G1 X189.426 Y137.177 E8.10176
G1 X188.979 Y137.049 E8.1081
G1 X188.691 Y136.94 E8.11229
G1 X188.215 Y136.713 E8.11947
G1 X187.889 Y136.518 E8.12465
G1 X187.525 Y136.256 E8.13076
G1 X187.212 Y135.986 E8.13639
G1 X186.921 Y135.69 E8.14204
G1 X186.662 Y135.377 E8.14757
G1 X186.464 Y135.098 E8.15223
G1 X184.33 Y131.541 E8.20873
G1 X182.531 Y127.87 E8.26441
G1 X181.051 Y124.077 E8.31986
G1 X179.924 Y120.279 E8.37382
G1 X179.071 Y116.154 E8.43119
G1 X178.771 Y113.654 E8.46549
G1 X176.928 Y113.362 E8.4909
G1 X176.374 Y113.29 E8.49851
G1 X172.906 Y112.778 E8.54626
G1 X172.238 Y112.663 E8.55549
G1 X169.911 Y112.328 E8.58751
G1 X167.192 Y111.834 E8.62515
G1 X163.613 Y111.148 E8.67478
G1 X161.162 Y110.64 E8.70887
G1 X159.254 Y110.221 E8.73548
G1 X155.774 Y109.414 E8.78414
G1 X155.305 Y109.125 E8.79164
G1 X154.958 Y108.701 E8.7991
G1 X154.729 Y108.255 E8.80593
G1 X154.73 Y106.731 E8.82669
M204 S500
G0 F3000 X155.281 Y106.415
M204 S100
G1 F1200 X155.546 Y106.07 E8.83261
G1 X155.825 Y105.837 E8.83756
G1 X158.798 Y105.174 E8.87905
G1 X161.264 Y104.607 E8.91351
G1 X162.006 Y104.448 E8.92385
G1 X166.664 Y103.528 E8.98852
G1 X170.047 Y102.912 E9.03535
