;FLAVOR:Marlin
;TIME:1599
;Filament used: 0.233608m
;Layer height: 0.15
;MINX:91.067
;MINY:110.76
;MINZ:0.2
;MAXX:143.045
;MAXY:124.233
;MAXZ:24.5
;TARGET_MACHINE.NAME:Creality Ender-3
;Generated with Cura_SteamEngine 5.6.0
M140 S65
M105
M190 S65
M104 S230
M105
M109 S230
M82 ;absolute extrusion mode
; Ender 3 Custom Start G-code
G92 E0 ; Reset Extruder
G28 ; Home all axes
G1 Z2.0 F3000 ; Move Z Axis up little to prevent scratching of Heat Bed
G1 X0.1 Y20 Z0.3 F5000.0 ; Move to start position
G1 X0.1 Y200.0 Z0.3 F1500.0 E15 ; Draw the first line
G1 X0.4 Y200.0 Z0.3 F5000.0 ; Move to side a little
G1 X0.4 Y20 Z0.3 F1500.0 E30 ; Draw the second line
G92 E0 ; Reset Extruder
G1 Z2.0 F3000 ; Move Z Axis up little to prevent scratching of Heat Bed
G1 X5 Y20 Z0.3 F5000.0 ; Move over to prevent blob squish
G92 E0
G92 E0
;LAYER_COUNT:163
;LAYER:0
M107
M204 S500
G0 F3000 X93.615 Y112.2 Z0.2
M204 S100
;TYPE:SKIRT
G1 F1200 X94.025 Y111.899 E0.00693
G1 X94.456 Y111.632 E0.01383
G1 X94.996 Y111.35 E0.02213
G1 X95.374 Y111.19 E0.02772
G1 X95.999 Y110.982 E0.03669
G1 X96.361 Y110.896 E0.04176
G1 X97.122 Y110.76 E0.05229
G1 X101.33 Y110.803 E0.10961
G1 X105.442 Y110.942 E0.16564
G1 X111.896 Y111.344 E0.25372
G1 X114.293 Y111.561 E0.2865
G1 X114.64 Y111.671 E0.29146
G1 X114.919 Y111.85 E0.29597
G1 X115.317 Y112.29 E0.30405
G1 X115.426 Y112.479 E0.30702
G1 X116.352 Y112.565 E0.31969
G1 X141.691 Y115.434 E0.66701
G1 X142.039 Y115.554 E0.67203
G1 X142.307 Y115.733 E0.67641
G1 X142.733 Y116.221 E0.68524
G1 X143.045 Y116.915 E0.6956
G1 X143.045 Y118.056 E0.71114
G1 X142.965 Y118.41 E0.71608
G1 X142.815 Y118.698 E0.72051
G1 X142.387 Y119.171 E0.7292
G1 X141.731 Y119.562 E0.7396
G1 X116.308 Y122.44 E1.08807
G1 X115.502 Y122.515 E1.0991
G1 X115.014 Y123.045 E1.10891
G1 X114.331 Y123.436 E1.11963
G1 X111.866 Y123.658 E1.15334
G1 X107.869 Y123.935 E1.20791
G1 X103.668 Y124.127 E1.26518
G1 X97.17 Y124.233 E1.3537
G1 X96.421 Y124.122 E1.36401
G1 X95.939 Y123.996 E1.3708
G1 X95.545 Y123.872 E1.37642
G1 X95.031 Y123.668 E1.38395
G1 X94.525 Y123.41 E1.39169
G1 X94.152 Y123.185 E1.39762
G1 X93.65 Y122.827 E1.40602
G1 X93.235 Y122.472 E1.41346
G1 X92.93 Y122.172 E1.41929
G1 X92.534 Y121.716 E1.42751
G1 X92.201 Y121.262 E1.43518
G1 X91.911 Y120.779 E1.44285
G1 X91.689 Y120.349 E1.44944
G1 X91.478 Y119.839 E1.45696
G1 X91.326 Y119.368 E1.4637
G1 X91.181 Y118.762 E1.47219
G1 X91.113 Y118.298 E1.47858
G1 X91.072 Y117.827 E1.48502
G1 X91.067 Y117.231 E1.49313
G1 X91.105 Y116.73 E1.49998
G1 X91.208 Y116.106 E1.50859
G1 X91.328 Y115.635 E1.51521
G1 X91.498 Y115.113 E1.52269
G1 X91.664 Y114.705 E1.52869
G1 X91.855 Y114.323 E1.5345
G1 X92.188 Y113.762 E1.54339
G1 X92.542 Y113.269 E1.55166
G1 X92.78 Y112.99 E1.55665
G1 X93.263 Y112.5 E1.56602
G1 X93.615 Y112.2 E1.57232
M204 S500
G0 F3000 X93.864 Y112.539
M204 S100
G1 F1200 X94.274 Y112.238 E1.57925
G1 X94.677 Y111.989 E1.5857
G1 X95.16 Y111.737 E1.59312
G1 X95.538 Y111.577 E1.59871
G1 X96.096 Y111.391 E1.60672
G1 X96.458 Y111.305 E1.61179
G1 X97.155 Y111.18 E1.62143
G1 X101.316 Y111.223 E1.67811
G1 X105.416 Y111.361 E1.73398
G1 X111.858 Y111.762 E1.82189
G1 X114.21 Y111.975 E1.85406
G1 X114.46 Y112.054 E1.85763
G1 X114.645 Y112.173 E1.86063
G1 X115.006 Y112.572 E1.86796
G1 X115.145 Y112.874 E1.87248
G1 X116.305 Y112.982 E1.88835
G1 X141.598 Y115.846 E2.23504
G1 X141.849 Y115.932 E2.23866
G1 X142.029 Y116.053 E2.24161
G1 X142.375 Y116.449 E2.24877
G1 X142.625 Y117.005 E2.25708
G1 X142.625 Y118.007 E2.27072
G1 X142.566 Y118.267 E2.27436
G1 X142.468 Y118.455 E2.27724
G1 X142.119 Y118.842 E2.28434
G1 X141.593 Y119.155 E2.29268
G1 X116.269 Y122.022 E2.63979
G1 X115.204 Y122.121 E2.65436
G1 X115.109 Y122.321 E2.65738
G1 X114.747 Y122.714 E2.66466
G1 X114.202 Y123.026 E2.67321
G1 X111.837 Y123.239 E2.70555
G1 X107.85 Y123.515 E2.75998
G1 X103.661 Y123.707 E2.8171
G1 X97.23 Y123.817 E2.9047
G1 X96.527 Y123.715 E2.91438
G1 X96.065 Y123.595 E2.92088
G1 X95.671 Y123.471 E2.9265
G1 X95.221 Y123.293 E2.93309
G1 X94.742 Y123.05 E2.94041
G1 X94.369 Y122.825 E2.94634
G1 X93.922 Y122.507 E2.95381
G1 X93.53 Y122.173 E2.96083
G1 X93.225 Y121.873 E2.96665
G1 X92.872 Y121.466 E2.97399
G1 X92.561 Y121.045 E2.98112
G1 X92.284 Y120.585 E2.98844
G1 X92.077 Y120.187 E2.99455
G1 X91.878 Y119.71 E3.00158
G1 X91.726 Y119.239 E3.00833
G1 X91.596 Y118.7 E3.01588
G1 X91.531 Y118.261 E3.02192
G1 X91.492 Y117.823 E3.02791
G1 X91.486 Y117.263 E3.03554
G1 X91.524 Y116.762 E3.04238
G1 X91.615 Y116.21 E3.05
G1 X91.735 Y115.739 E3.05662
G1 X91.897 Y115.244 E3.06372
G1 X92.04 Y114.893 E3.06888
G1 X92.231 Y114.511 E3.07469
G1 X92.53 Y114.006 E3.08269
G1 X92.862 Y113.542 E3.09046
G1 X93.1 Y113.263 E3.09545
G1 X93.536 Y112.819 E3.10393
G1 X93.864 Y112.539 E3.1098
M204 S500
G0 F3000 X94.113 Y112.878
M204 S100
G1 F1200 X94.523 Y112.577 E3.11673
G1 X94.897 Y112.347 E3.12271
G1 X95.324 Y112.124 E3.12927
G1 X95.702 Y111.964 E3.13486
G1 X96.193 Y111.8 E3.14191
G1 X96.555 Y111.714 E3.14698
G1 X97.188 Y111.6 E3.15574
G1 X101.302 Y111.643 E3.21178
G1 X105.39 Y111.78 E3.26749
G1 X111.82 Y112.18 E3.35523
G1 X114.124 Y112.389 E3.38674
G1 X114.334 Y112.455 E3.38974
G1 X114.65 Y112.804 E3.39615
G1 X114.864 Y113.269 E3.40312
G1 X116.258 Y113.399 E3.42219
G1 X141.505 Y116.258 E3.76825
G1 X141.713 Y116.329 E3.77125
G1 X142.017 Y116.677 E3.77754
G1 X142.205 Y117.095 E3.78378
G1 X142.205 Y117.958 E3.79554
G1 X142.156 Y118.174 E3.79855
G1 X141.85 Y118.513 E3.80477
G1 X141.455 Y118.748 E3.81103
G1 X116.23 Y121.604 E4.1568
G1 X114.845 Y121.733 E4.17574
G1 X114.8 Y122.036 E4.17991
G1 X114.48 Y122.383 E4.18634
G1 X114.073 Y122.616 E4.19273
G1 X111.808 Y122.82 E4.2237
G1 X107.831 Y123.095 E4.278
G1 X103.654 Y123.287 E4.33495
G1 X97.223 Y123.397 E4.42255
G1 X96.633 Y123.309 E4.43068
G1 X96.191 Y123.194 E4.4369
G1 X95.797 Y123.07 E4.44252
G1 X95.411 Y122.918 E4.44817
G1 X94.932 Y122.675 E4.45549
G1 X94.587 Y122.466 E4.46098
G1 X94.194 Y122.187 E4.46755
G1 X93.825 Y121.874 E4.47414
G1 X93.52 Y121.574 E4.47997
G1 X93.209 Y121.216 E4.48642
G1 X92.921 Y120.828 E4.49301
G1 X92.644 Y120.368 E4.50032
G1 X92.464 Y120.024 E4.50561
G1 X92.278 Y119.581 E4.51215
G1 X92.126 Y119.11 E4.51889
G1 X92.011 Y118.638 E4.52551
G1 X91.949 Y118.223 E4.53122
G1 X91.912 Y117.817 E4.53678
G1 X91.905 Y117.294 E4.5439
G1 X91.939 Y116.829 E4.55025
G1 X92.022 Y116.314 E4.55736
G1 X92.142 Y115.843 E4.56398
G1 X92.286 Y115.402 E4.57029
G1 X92.416 Y115.081 E4.57501
G1 X92.607 Y114.699 E4.58083
G1 X92.872 Y114.25 E4.58793
G1 X93.182 Y113.815 E4.5952
G1 X93.42 Y113.536 E4.6002
G1 X93.81 Y113.138 E4.60779
G1 X94.113 Y112.878 E4.61323
M204 S500
G0 F3000 X94.661 Y113.516
M204 S100
G1 F1200 X94.991 Y113.274 E4.6188
G1 X95.312 Y113.077 E4.62393
G1 X95.652 Y112.898 E4.62916
G1 X96.03 Y112.738 E4.63475
G1 X96.387 Y112.618 E4.63988
G1 X96.749 Y112.532 E4.64495
G1 X97.256 Y112.44 E4.65197
G1 X101.274 Y112.483 E4.7067
G1 X105.338 Y112.618 E4.76208
G1 X111.744 Y113.016 E4.8495
G1 X113.913 Y113.213 E4.87916
G1 X114.005 Y113.413 E4.88216
G1 X114.005 Y121.687 E4.99485
G1 X113.814 Y121.796 E4.99785
G1 X111.75 Y121.982 E5.02607
G1 X107.793 Y122.255 E5.0801
G1 X103.638 Y122.447 E5.13675
G1 X97.275 Y122.561 E5.22343
G1 X96.803 Y122.487 E5.22993
G1 X96.441 Y122.392 E5.23503
G1 X96.103 Y122.287 E5.23985
G1 X95.755 Y122.152 E5.24493
G1 X95.366 Y121.955 E5.25087
G1 X95.046 Y121.762 E5.25596
G1 X94.735 Y121.544 E5.26114
G1 X94.415 Y121.276 E5.26682
G1 X94.11 Y120.976 E5.27265
G1 X93.881 Y120.712 E5.27741
G1 X93.617 Y120.359 E5.28341
G1 X93.376 Y119.956 E5.28981
G1 X93.223 Y119.665 E5.29428
G1 X93.077 Y119.322 E5.29936
G1 X92.933 Y118.879 E5.30571
G1 X92.841 Y118.512 E5.31086
G1 X92.785 Y118.144 E5.31593
G1 X92.752 Y117.802 E5.32061
G1 X92.743 Y117.351 E5.32675
G1 X92.769 Y116.958 E5.33212
G1 X92.836 Y116.522 E5.33813
G1 X92.956 Y116.051 E5.34475
G1 X93.066 Y115.714 E5.34957
G1 X93.182 Y115.425 E5.35381
G1 X93.345 Y115.1 E5.35877
G1 X93.577 Y114.706 E5.36499
G1 X93.822 Y114.361 E5.37076
G1 X94.06 Y114.082 E5.37575
G1 X94.358 Y113.776 E5.38157
G1 X94.661 Y113.516 E5.38701
M204 S500
G0 F3000 X94.387 Y113.197
M204 S100
G1 F1200 X94.771 Y112.916 E5.39349
G1 X95.116 Y112.705 E5.399
G1 X95.488 Y112.511 E5.40471
G1 X95.866 Y112.351 E5.4103
G1 X96.29 Y112.209 E5.41639
G1 X96.652 Y112.123 E5.42146
G1 X97.222 Y112.02 E5.42935
G1 X101.288 Y112.063 E5.48473
G1 X105.364 Y112.199 E5.54028
G1 X111.782 Y112.598 E5.62786
G1 X114.086 Y112.807 E5.65937
G1 X114.295 Y113.037 E5.6636
G1 X114.425 Y113.32 E5.66784
G1 X114.425 Y113.649 E5.67232
G1 X116.211 Y113.816 E5.69676
G1 X141.458 Y116.675 E6.04282
G1 X141.659 Y116.905 E6.04698
G1 X141.785 Y117.185 E6.05116
G1 X141.785 Y117.958 E6.06169
G1 X141.579 Y118.186 E6.06587
G1 X141.318 Y118.341 E6.07001
G1 X116.191 Y121.186 E6.41442
G1 X114.425 Y121.351 E6.43858
G1 X114.425 Y121.822 E6.445
G1 X114.213 Y122.052 E6.44926
G1 X113.944 Y122.206 E6.45348
G1 X111.779 Y122.401 E6.48309
G1 X107.812 Y122.675 E6.53725
G1 X103.646 Y122.867 E6.59405
G1 X97.283 Y122.981 E6.68073
G1 X96.738 Y122.902 E6.68823
G1 X96.316 Y122.793 E6.69416
G1 X95.951 Y122.679 E6.69937
G1 X95.565 Y122.527 E6.70502
G1 X95.149 Y122.315 E6.71138
G1 X94.829 Y122.122 E6.71647
G1 X94.465 Y121.866 E6.72253
G1 X94.12 Y121.575 E6.72868
G1 X93.815 Y121.275 E6.7345
G1 X93.545 Y120.964 E6.74011
G1 X93.281 Y120.611 E6.74612
G1 X93.004 Y120.151 E6.75343
G1 X92.851 Y119.86 E6.75791
G1 X92.678 Y119.452 E6.76394
G1 X92.526 Y118.981 E6.77069
G1 X92.426 Y118.575 E6.77638
G1 X92.367 Y118.184 E6.78177
G1 X92.332 Y117.81 E6.78688
G1 X92.324 Y117.323 E6.79352
G1 X92.354 Y116.894 E6.79937
G1 X92.429 Y116.418 E6.80594
G1 X92.549 Y115.947 E6.81256
G1 X92.676 Y115.558 E6.81813
G1 X92.792 Y115.269 E6.82237
G1 X92.983 Y114.887 E6.82819
G1 X93.215 Y114.493 E6.83442
G1 X93.502 Y114.088 E6.84118
G1 X93.74 Y113.809 E6.84617
G1 X94.084 Y113.457 E6.85287
G1 X94.387 Y113.197 E6.85831
M204 S500
G0 F3000 X114.425 Y114.208
M204 S100
G1 F1200 X114.589 Y114.086 E6.8611
G1 X116.164 Y114.233 E6.88264
G1 X141.276 Y117.077 E7.22685
G1 X141.365 Y117.275 E7.22981
G1 X141.365 Y117.824 E7.23729
G1 X141.179 Y117.934 E7.24023
G1 X116.152 Y120.768 E7.58328
G1 X114.561 Y120.917 E7.60504
G1 X114.425 Y120.765 E7.60782
G1 X114.425 Y114.208 E7.69713
M204 S500
G0 F3000 X96.484 Y113.028
M204 S100
G1 F1200 X96.499 Y113.023 E7.69734
G1 X96.57 Y113.006 E7.69834
G1 X96.516 Y113.019 E7.69909
G1 X96.51 Y113.021 E7.69918
G1 X96.484 Y113.028 E7.69955
M204 S500
G0 F3000 X93.566 Y115.596
M204 S100
G1 F1200 X93.559 Y115.611 E7.69977
G1 X93.513 Y115.728 E7.70148
G1 X93.508 Y115.74 E7.70166
G1 X93.561 Y115.606 E7.70362
G1 X93.566 Y115.596 E7.70378
M204 S500
G0 F3000 X93.27 Y116.516
M204 S100
G1 F1200 X93.252 Y116.589 E7.7048
G1 X93.27 Y116.516 E7.70582
M204 S500
G0 F3000 X93.163 Y117.378
M204 S100
G1 F1200 X93.172 Y117.775 E7.71123
G1 X93.173 Y117.789 E7.71142
G1 X93.185 Y117.92 E7.71322
G1 X93.172 Y117.784 E7.71508
G1 X93.163 Y117.378 E7.72061
M204 S500
G0 F3000 X93.255 Y118.432
M204 S100
G1 F1200 X93.258 Y118.446 E7.7208
G1 X93.256 Y118.439 E7.7209
G1 X93.255 Y118.432 E7.721
M204 S500
G0 F3000 X93.358 Y118.827
M204 S100
G1 F1200 X93.47 Y119.168 E7.72589
G1 X93.475 Y119.18 E7.72606
G1 X93.483 Y119.201 E7.72637
G1 X93.485 Y119.208 E7.72647
G1 X93.477 Y119.191 E7.72672
G1 X93.358 Y118.827 E7.73194
M204 S500
G0 F3000 X93.592 Y119.462
M204 S100
G1 F1200 X93.596 Y119.469 E7.73205
G1 X93.604 Y119.486 E7.73231
G1 X93.748 Y119.76 E7.73652
G1 X93.595 Y119.469 E7.741
G1 X93.592 Y119.462 E7.7411
M204 S500
G0 F3000 X105.906 Y121.921
M204 S100
G1 F1200 X107.764 Y121.835 E7.76644
G1 X107.912 Y121.825 E7.76846
G1 X107.769 Y121.835 E7.77041
G1 X105.906 Y121.921 E7.79581
M204 S500
G0 F3000 X106.094 Y113.087
M204 S100
G1 F1200 X105.293 Y113.037 E7.80674
G1 X105.312 Y113.038 E7.807
G1 X106.094 Y113.087 E7.81767
M204 S500
G0 F3000 X105.248 Y113.456
M204 S100
;TYPE:SUPPORT-INTERFACE
G1 F1200 X111.677 Y113.852 E7.9054
G1 X113.585 Y114.026 E7.9315
G1 X113.585 Y120.974 E8.02613
G1 X111.706 Y121.144 E8.05182
G1 X111.706 Y121.143 E8.05184
G1 X107.74 Y121.415 E8.10598
G1 X103.616 Y121.607 E8.16221
G1 X103.565 Y121.608 E8.16291
G1 X103.345 Y121.618 E8.16591
G1 X103.289 Y121.619 E8.16667
G1 X103.074 Y121.629 E8.1696
G1 X97.324 Y121.733 E8.24793
G1 X96.911 Y121.66 E8.25364
G1 X96.787 Y121.616 E8.25543
G1 X96.677 Y121.588 E8.25698
G1 X96.606 Y121.565 E8.258
G1 X96.59 Y121.562 E8.25822
G1 X96.521 Y121.539 E8.25921
G1 X96.506 Y121.536 E8.25942
G1 X96.294 Y121.469 E8.26244
G1 X96.066 Y121.381 E8.26577
G1 X95.807 Y121.249 E8.26973
G1 X95.478 Y121.05 E8.27497
G1 X95.24 Y120.879 E8.27896
G1 X95.009 Y120.686 E8.28306
G1 X94.741 Y120.427 E8.28814
G1 X94.495 Y120.14 E8.29328
G1 X94.321 Y119.902 E8.2973
G1 X94.284 Y119.836 E8.29833
G1 X94.12 Y119.564 E8.30266
G1 X93.982 Y119.302 E8.30669
G1 X93.978 Y119.291 E8.30685
G1 X93.918 Y119.185 E8.30851
G1 X93.879 Y119.061 E8.31028
G1 X93.87 Y119.038 E8.31062
G1 X93.744 Y118.654 E8.31612
G1 X93.668 Y118.355 E8.32032
G1 X93.666 Y118.344 E8.32047
G1 X93.661 Y118.322 E8.32078
G1 X93.66 Y118.315 E8.32088
G1 X93.656 Y118.302 E8.32106
G1 X93.651 Y118.26 E8.32164
G1 X93.624 Y118.092 E8.32396
G1 X93.623 Y118.081 E8.32411
G1 X93.619 Y118.052 E8.32451
G1 X93.592 Y117.761 E8.32849
G1 X93.583 Y117.387 E8.33358
G1 X93.604 Y117.058 E8.33807
G1 X93.662 Y116.684 E8.34323
G1 X93.682 Y116.605 E8.34434
G1 X93.684 Y116.587 E8.34458
G1 X93.7 Y116.535 E8.34532
G1 X93.751 Y116.328 E8.34823
G1 X93.84 Y116.043 E8.35229
G1 X93.848 Y116.022 E8.3526
G1 X93.854 Y116 E8.35291
G1 X93.863 Y115.981 E8.3532
G1 X93.869 Y115.958 E8.35352
G1 X93.902 Y115.888 E8.35457
G1 X93.947 Y115.772 E8.35627
G1 X94.081 Y115.506 E8.36033
G1 X94.228 Y115.254 E8.3643
G1 X94.278 Y115.162 E8.36573
G1 X94.498 Y114.856 E8.37086
G1 X94.692 Y114.627 E8.37495
G1 X94.954 Y114.362 E8.38002
G1 X95.184 Y114.164 E8.38416
G1 X95.473 Y113.952 E8.38904
G1 X95.734 Y113.791 E8.39321
G1 X96.003 Y113.649 E8.39736
G1 X96.284 Y113.529 E8.40152
G1 X96.497 Y113.458 E8.40458
G1 X96.531 Y113.449 E8.40506
G1 X96.533 Y113.449 E8.40508
G1 X96.616 Y113.427 E8.40625
G1 X96.925 Y113.351 E8.41059
G1 X97.066 Y113.325 E8.41254
G1 X97.247 Y113.267 E8.41513
G1 X100.919 Y113.308 E8.46514
G1 X104.831 Y113.44 E8.51846
G1 X104.867 Y113.442 E8.51895
G1 X105.039 Y113.448 E8.52129
G1 X105.076 Y113.45 E8.5218
G1 X105.248 Y113.456 E8.52414
M204 S500
G0 F3000 X106.623 Y113.75
M204 S100
G1 F1200 X113.375 Y120.503 E8.6542
M204 S500
G0 F3000 X113.374 Y118.273
M204 S100
G1 F1200 X110.643 Y121.004 E8.70681
M204 S500
G0 F3000 X110.334 Y121.025
M204 S100
G1 F1200 X102.893 Y113.585 E8.85012
M204 S500
G0 F3000 X103.777 Y113.615
M204 S100
G1 F1200 X96.19 Y121.202 E8.99626
G1 X96.297 Y121.244
G1 X94.09 Y119.037 E9.03877
M204 S500
G0 F3000 X94.328 Y119.5
M204 S100
G1 F1200 X100.317 Y113.511 E9.15413
M204 S500
G0 F3000 X99.243 Y113.498
M204 S100
G1 F1200 X106.981 Y121.236 E9.30318
G1 X106.841 Y121.243
G1 X113.374 Y114.709 E9.42902
M204 S500
G0 F3000 X113.375 Y116.939
M204 S100
G1 F1200 X110.421 Y113.984 E9.48593
G1 X110.529 Y113.991
G1 X103.104 Y121.415 E9.62894
M204 S500
G0 F3000 X103.574 Y121.393
M204 S100
G1 F1200 X96.045 Y113.864 E9.77396
M204 S500
G0 F3000 X96.623 Y113.641
M204 S100
G1 F1200 X93.987 Y116.278 E9.82474
M204 S500
G0 F3000 X94.251 Y115.634
M204 S100
G1 F1200 X100.088 Y121.471 E9.93717
M204 S500
G0 F3000 X99.473 Y121.483
M204 S100
G1 F1200 X107.172 Y113.784 E10.08547
M204 S500
G0 F3000 X105.248 Y113.456
M204 S100
G1 F1200 X111.677 Y113.852 E10.1732
G1 X113.585 Y114.026 E10.19929
G1 X113.585 Y120.974 E10.29392
G1 X111.706 Y121.144 E10.31962
G1 X111.706 Y121.143 E10.31963
G1 X107.74 Y121.415 E10.37378
G1 X103.616 Y121.607 E10.43001
G1 X103.565 Y121.608 E10.4307
G1 X103.345 Y121.618 E10.4337
G1 X103.289 Y121.619 E10.43446
G1 X103.074 Y121.629 E10.4374
G1 X97.324 Y121.733 E10.51572
G1 X96.911 Y121.66 E10.52144
G1 X96.787 Y121.616 E10.52323
G1 X96.677 Y121.588 E10.52477
G1 X96.606 Y121.565 E10.52579
G1 X96.59 Y121.562 E10.52601
G1 X96.521 Y121.539 E10.527
G1 X96.506 Y121.536 E10.52721
G1 X96.294 Y121.469 E10.53024
G1 X96.066 Y121.381 E10.53357
G1 X95.807 Y121.249 E10.53753
