;FLAVOR:Marlin
;TIME:9602
;Filament used: 1.6437m
;Layer height: 0.15
;MINX:105.321
;MINY:108.306
;MINZ:0.2
;MAXX:129.678
;MAXY:126.691
;MAXZ:122.3
;TARGET_MACHINE.NAME:Creality Ender-3
;Generated with Cura_SteamEngine 5.6.0
M140 S65
M105
M190 S65
M104 S230
M105
M109 S230
M82 ;absolute extrusion mode
; Ender 3 Custom Start G-code
G92 E0 ; Reset Extruder
G28 ; Home all axes
G1 Z2.0 F3000 ; Move Z Axis up little to prevent scratching of Heat Bed
G1 X0.1 Y20 Z0.3 F5000.0 ; Move to start position
G1 X0.1 Y200.0 Z0.3 F1500.0 E15 ; Draw the first line
G1 X0.4 Y200.0 Z0.3 F5000.0 ; Move to side a little
G1 X0.4 Y20 Z0.3 F1500.0 E30 ; Draw the second line
G92 E0 ; Reset Extruder
G1 Z2.0 F3000 ; Move Z Axis up little to prevent scratching of Heat Bed
G1 X5 Y20 Z0.3 F5000.0 ; Move over to prevent blob squish
G92 E0
G92 E0
;LAYER_COUNT:815
;LAYER:0
M107
M204 S500
G0 F3000 X106.935 Y113.62 Z0.2
M204 S100
;TYPE:SKIRT
G1 F1200 X107.31 Y113.279 E0.0069
G1 X107.679 Y112.998 E0.01322
G1 X108.005 Y112.789 E0.01849
G1 X108.466 Y112.545 E0.0256
G1 X108.884 Y112.368 E0.03178
G1 X109.381 Y112.21 E0.03888
G1 X109.902 Y112.103 E0.04613
G1 X110.432 Y112.065 E0.05337
G1 X110.543 Y111.664 E0.05903
G1 X110.866 Y111.115 E0.06771
G1 X111.412 Y110.609 E0.07785
G1 X116.509 Y108.801 E0.15151
G1 X117.003 Y108.739 E0.15829
G1 X117.662 Y108.972 E0.16781
G1 X118.083 Y109.255 E0.17472
G1 X118.405 Y109.595 E0.18109
G1 X118.618 Y109.986 E0.18716
G1 X118.974 Y111.486 E0.20816
G1 X127.97 Y110.877 E0.33096
G1 X128.474 Y110.952 E0.3379
G1 X129.032 Y111.351 E0.34725
G1 X129.359 Y111.728 E0.35404
G1 X129.574 Y112.121 E0.36014
G1 X129.678 Y112.529 E0.36588
G1 X129.678 Y122.533 E0.50213
G1 X129.569 Y123.022 E0.50896
G1 X129.128 Y123.563 E0.51846
G1 X128.733 Y123.858 E0.52518
G1 X128.317 Y124.047 E0.5314
G1 X127.911 Y124.122 E0.53703
G1 X118.769 Y123.503 E0.66182
G1 X118.769 Y124.644 E0.67736
G1 X118.659 Y125.137 E0.68424
G1 X118.217 Y125.677 E0.69375
G1 X117.727 Y126.044 E0.70209
G1 X117.394 Y126.19 E0.70704
G1 X117.102 Y126.242 E0.71108
G1 X116.501 Y126.203 E0.71928
G1 X111.427 Y124.401 E0.79262
G1 X111.111 Y124.202 E0.79771
G1 X110.895 Y123.972 E0.802
G1 X110.591 Y123.412 E0.81068
G1 X110.492 Y122.934 E0.81733
G1 X109.668 Y122.863 E0.82859
G1 X109.287 Y122.768 E0.83394
G1 X108.733 Y122.576 E0.84193
G1 X108.319 Y122.387 E0.84813
G1 X108.005 Y122.214 E0.85301
G1 X107.53 Y121.896 E0.86079
G1 X107.229 Y121.655 E0.86605
G1 X106.857 Y121.306 E0.87299
G1 X106.627 Y121.053 E0.87765
G1 X106.265 Y120.572 E0.88585
G1 X106.032 Y120.198 E0.89185
G1 X105.834 Y119.813 E0.89775
G1 X105.642 Y119.344 E0.90465
G1 X105.496 Y118.868 E0.91143
G1 X105.403 Y118.441 E0.91738
G1 X105.351 Y118.063 E0.92258
G1 X105.321 Y117.443 E0.93104
G1 X105.359 Y116.876 E0.93878
G1 X105.429 Y116.427 E0.94496
G1 X105.543 Y115.962 E0.95149
G1 X105.678 Y115.559 E0.95727
G1 X105.824 Y115.214 E0.96238
G1 X106.099 Y114.692 E0.97041
G1 X106.343 Y114.318 E0.97649
G1 X106.633 Y113.945 E0.98293
G1 X106.935 Y113.62 E0.98897
M204 S500
G0 F3000 X107.219 Y113.93
M204 S100
G1 F1200 X107.565 Y113.613 E0.99536
G1 X107.906 Y113.352 E1.00121
G1 X108.232 Y113.143 E1.00649
G1 X108.63 Y112.932 E1.01262
G1 X109.048 Y112.755 E1.0188
G1 X109.469 Y112.621 E1.02482
G1 X109.932 Y112.522 E1.03127
G1 X110.872 Y112.454 E1.04411
G1 X110.876 Y112.036 E1.0498
G1 X110.934 Y111.828 E1.05274
G1 X111.197 Y111.38 E1.05982
G1 X111.633 Y110.976 E1.06791
G1 X116.605 Y109.212 E1.13977
G1 X116.957 Y109.168 E1.1446
G1 X117.474 Y109.351 E1.15207
G1 X117.807 Y109.575 E1.15753
G1 X118.062 Y109.844 E1.16258
G1 X118.222 Y110.137 E1.16713
G1 X118.647 Y111.929 E1.19221
G1 X127.955 Y111.299 E1.31928
G1 X128.311 Y111.352 E1.32418
G1 X128.749 Y111.665 E1.33151
G1 X129.011 Y111.967 E1.33696
G1 X129.18 Y112.277 E1.34177
G1 X129.258 Y112.582 E1.34606
G1 X129.258 Y122.487 E1.48096
G1 X129.181 Y122.834 E1.4858
G1 X128.835 Y123.257 E1.49325
G1 X128.517 Y123.495 E1.49866
G1 X128.191 Y123.643 E1.50353
G1 X127.887 Y123.699 E1.50774
G1 X118.349 Y123.054 E1.63795
G1 X118.349 Y124.598 E1.65898
G1 X118.271 Y124.948 E1.66386
G1 X117.924 Y125.371 E1.67131
G1 X117.513 Y125.679 E1.67831
G1 X117.273 Y125.785 E1.68188
G1 X117.076 Y125.82 E1.68461
G1 X116.588 Y125.788 E1.69127
G1 X111.609 Y124.02 E1.76323
G1 X111.382 Y123.877 E1.76688
G1 X111.237 Y123.722 E1.76977
G1 X110.99 Y123.267 E1.77683
G1 X110.887 Y122.772 E1.78371
G1 X110.898 Y122.545 E1.78681
G1 X109.77 Y122.455 E1.80222
G1 X109.389 Y122.36 E1.80757
G1 X108.906 Y122.193 E1.81453
G1 X108.522 Y122.019 E1.82027
G1 X108.208 Y121.846 E1.82515
G1 X107.792 Y121.568 E1.83197
G1 X107.516 Y121.348 E1.83677
G1 X107.168 Y121.023 E1.84326
G1 X106.938 Y120.77 E1.84792
G1 X106.621 Y120.35 E1.85508
G1 X106.405 Y120.004 E1.86064
G1 X106.223 Y119.654 E1.86601
G1 X106.031 Y119.185 E1.87291
G1 X105.906 Y118.778 E1.87871
G1 X105.819 Y118.382 E1.88424
G1 X105.771 Y118.043 E1.8889
G1 X105.741 Y117.423 E1.89735
G1 X105.774 Y116.939 E1.90396
G1 X105.837 Y116.526 E1.90965
G1 X105.942 Y116.094 E1.91571
G1 X106.066 Y115.721 E1.92106
G1 X106.196 Y115.409 E1.92566
G1 X106.452 Y114.92 E1.93318
G1 X106.675 Y114.575 E1.93878
G1 X106.942 Y114.23 E1.94472
G1 X107.219 Y113.93 E1.95028
M204 S500
G0 F3000 X107.528 Y114.215
M204 S100
G1 F1200 X107.821 Y113.946 E1.9557
G1 X108.133 Y113.706 E1.96106
G1 X108.459 Y113.497 E1.96633
G1 X108.794 Y113.318 E1.9715
G1 X109.177 Y113.155 E1.97717
G1 X109.557 Y113.032 E1.98261
G1 X110.02 Y112.933 E1.98906
G1 X111.414 Y112.839 E2.00809
G1 X111.294 Y112.259 E2.01616
G1 X111.296 Y112.04 E2.01914
G1 X111.527 Y111.646 E2.02536
G1 X111.854 Y111.343 E2.03143
G1 X116.701 Y109.623 E2.10148
G1 X116.91 Y109.597 E2.10435
G1 X117.284 Y109.73 E2.10976
G1 X117.534 Y109.898 E2.11386
G1 X117.721 Y110.095 E2.11756
G1 X117.826 Y110.287 E2.12054
G1 X118.257 Y112.107 E2.14602
G1 X118.129 Y112.385 E2.15018
G1 X127.94 Y111.721 E2.28412
G1 X128.148 Y111.752 E2.28698
G1 X128.466 Y111.979 E2.2923
G1 X128.663 Y112.206 E2.29639
G1 X128.787 Y112.433 E2.29992
G1 X128.838 Y112.634 E2.30274
G1 X128.838 Y122.44 E2.4363
G1 X128.792 Y122.646 E2.43918
G1 X128.543 Y122.951 E2.44454
G1 X128.3 Y123.132 E2.44866
G1 X128.065 Y123.239 E2.45218
G1 X127.863 Y123.276 E2.45498
G1 X117.929 Y122.605 E2.59059
G1 X117.929 Y124.552 E2.61711
G1 X117.883 Y124.759 E2.61999
G1 X117.632 Y125.065 E2.62538
G1 X117.299 Y125.314 E2.63105
G1 X117.103 Y125.401 E2.63397
G1 X116.675 Y125.373 E2.63981
G1 X111.791 Y123.639 E2.7104
G1 X111.606 Y123.522 E2.71338
G1 X111.389 Y123.122 E2.71958
G1 X111.298 Y122.686 E2.72564
G1 X111.406 Y122.162 E2.73293
G1 X109.872 Y122.047 E2.75388
G1 X109.491 Y121.952 E2.75923
G1 X109.078 Y121.81 E2.76518
G1 X108.725 Y121.651 E2.77045
G1 X108.411 Y121.478 E2.77534
G1 X108.053 Y121.239 E2.7812
G1 X107.802 Y121.04 E2.78556
G1 X107.479 Y120.74 E2.79157
G1 X107.249 Y120.487 E2.79622
G1 X106.977 Y120.127 E2.80237
G1 X106.778 Y119.81 E2.80747
G1 X106.596 Y119.46 E2.81284
G1 X106.432 Y119.061 E2.81871
G1 X106.316 Y118.687 E2.82405
G1 X106.235 Y118.323 E2.82913
G1 X106.187 Y117.984 E2.83379
G1 X106.16 Y117.45 E2.84107
G1 X106.189 Y117.001 E2.8472
G1 X106.245 Y116.624 E2.85239
G1 X106.341 Y116.226 E2.85797
G1 X106.465 Y115.853 E2.86332
G1 X106.583 Y115.572 E2.86747
G1 X106.805 Y115.147 E2.874
G1 X107.008 Y114.831 E2.87912
G1 X107.251 Y114.515 E2.88455
G1 X107.528 Y114.215 E2.89011
M204 S500
G0 F3000 X108.1 Y114.83
M204 S100
G1 F1200 X108.337 Y114.609 E2.89452
G1 X108.59 Y114.411 E2.8989
G1 X108.859 Y114.236 E2.90327
G1 X109.128 Y114.089 E2.90744
G1 X109.441 Y113.952 E2.9121
G1 X109.747 Y113.85 E2.91649
G1 X110.076 Y113.771 E2.9211
G1 X127.866 Y112.568 E3.16395
G1 X127.998 Y112.72 E3.16669
G1 X127.998 Y122.311 E3.29732
G1 X127.836 Y122.432 E3.30008
G1 X110.074 Y121.231 E3.54255
G1 X109.727 Y121.146 E3.54742
G1 X109.419 Y121.042 E3.55184
G1 X109.129 Y120.914 E3.55616
G1 X108.845 Y120.759 E3.56057
G1 X108.575 Y120.581 E3.56497
G1 X108.324 Y120.382 E3.56933
G1 X108.101 Y120.174 E3.57349
G1 X107.871 Y119.921 E3.57814
G1 X107.687 Y119.677 E3.58231
G1 X107.506 Y119.391 E3.58692
G1 X107.357 Y119.105 E3.59131
G1 X107.233 Y118.807 E3.59571
G1 X107.135 Y118.5 E3.60009
G1 X107.067 Y118.205 E3.60422
G1 X107.019 Y117.866 E3.60888
G1 X106.998 Y117.501 E3.61386
G1 X107.021 Y117.119 E3.61907
G1 X107.063 Y116.816 E3.62324
G1 X107.14 Y116.486 E3.62785
G1 X107.239 Y116.179 E3.63225
G1 X107.357 Y115.898 E3.6364
G1 X107.514 Y115.597 E3.64102
G1 X107.677 Y115.339 E3.64518
G1 X107.872 Y115.081 E3.64958
G1 X108.1 Y114.83 E3.6542
M204 S500
G0 F3000 X107.814 Y114.523
M204 S100
G1 F1200 X108.078 Y114.278 E3.65911
G1 X108.361 Y114.059 E3.66398
G1 X108.658 Y113.867 E3.6688
G1 X108.96 Y113.704 E3.67347
G1 X109.308 Y113.554 E3.67863
G1 X109.649 Y113.442 E3.68352
G1 X110.048 Y113.352 E3.68909
G1 X111.922 Y113.226 E3.71467
G1 X111.705 Y112.174 E3.7293
G1 X111.858 Y111.912 E3.73344
G1 X112.077 Y111.71 E3.7375
G1 X116.841 Y110.019 E3.80635
G1 X117.094 Y110.109 E3.81
G1 X117.417 Y110.384 E3.81578
G1 X117.819 Y112.081 E3.83954
G1 X117.576 Y112.51 E3.84625
G1 X117.508 Y112.848 E3.85095
G1 X127.968 Y112.14 E3.99374
G1 X128.183 Y112.293 E3.99733
G1 X128.418 Y112.634 E4.00297
G1 X128.418 Y122.44 E4.13653
G1 X128.249 Y122.647 E4.14017
G1 X127.891 Y122.857 E4.14582
G1 X117.446 Y122.151 E4.28841
G1 X117.472 Y122.509 E4.2933
G1 X117.509 Y122.696 E4.29589
G1 X117.509 Y124.552 E4.32117
G1 X117.34 Y124.759 E4.32481
G1 X117.048 Y124.977 E4.32978
G1 X116.762 Y124.958 E4.33368
G1 X111.932 Y123.243 E4.40349
G1 X111.788 Y122.977 E4.40761
G1 X111.727 Y122.685 E4.41167
G1 X111.914 Y121.777 E4.4243
G1 X109.974 Y121.639 E4.45079
G1 X109.593 Y121.544 E4.45613
G1 X109.249 Y121.426 E4.46109
G1 X108.928 Y121.283 E4.46587
G1 X108.614 Y121.11 E4.47076
G1 X108.314 Y120.91 E4.47567
G1 X108.063 Y120.711 E4.48003
G1 X107.79 Y120.457 E4.48511
G1 X107.56 Y120.204 E4.48977
G1 X107.332 Y119.902 E4.49492
G1 X107.151 Y119.616 E4.49953
G1 X106.969 Y119.266 E4.5049
G1 X106.833 Y118.935 E4.50978
G1 X106.726 Y118.594 E4.51464
G1 X106.651 Y118.264 E4.51925
G1 X106.603 Y117.925 E4.52392
G1 X106.579 Y117.476 E4.53004
G1 X106.605 Y117.061 E4.5357
G1 X106.654 Y116.721 E4.54038
G1 X106.74 Y116.357 E4.54548
G1 X106.852 Y116.016 E4.55037
G1 X106.97 Y115.735 E4.55452
G1 X107.159 Y115.373 E4.56008
G1 X107.342 Y115.086 E4.56471
G1 X107.561 Y114.799 E4.56963
G1 X107.814 Y114.523 E4.57473
M204 S500
G0 F3000 X112.307 Y113.017
M204 S100
G1 F1200 X112.143 Y112.221 E4.5858
G1 X112.299 Y112.077 E4.58869
G1 X116.86 Y110.458 E4.65461
G1 X117.03 Y110.572 E4.6574
G1 X117.379 Y112.047 E4.67804
G1 X117.209 Y112.203 E4.68119
G1 X117.073 Y112.877 E4.69055
G1 X112.429 Y113.192 E4.75395
G1 X112.307 Y113.017 E4.75685
M204 S500
G0 F3000 X112.52 Y121.817
M204 S100
G1 F1200 X116.938 Y122.116 E4.81716
G1 X117.036 Y122.306 E4.82008
G1 X117.056 Y122.583 E4.82386
G1 X117.089 Y122.696 E4.82546
G1 X117.089 Y124.423 E4.84898
G1 X116.903 Y124.562 E4.85215
G1 X112.199 Y122.892 E4.92013
G1 X112.156 Y122.685 E4.92301
G1 X112.32 Y121.888 E4.93409
G1 X112.52 Y121.817 E4.93698
M204 S500
G0 F3000 X110.944 Y118.173
M204 S100
G1 F1200 X111.168 Y118.083 E4.94027
G1 X111.339 Y117.932 E4.94338
G1 X111.453 Y117.72 E4.94666
G1 X111.489 Y117.486 E4.94988
G1 X111.434 Y117.197 E4.95389
G1 X111.24 Y116.971 E4.95795
G1 X111.038 Y116.856 E4.96111
G1 X110.802 Y116.815 E4.96437
G1 X110.572 Y116.854 E4.96755
G1 X110.363 Y116.958 E4.97073
G1 X110.189 Y117.19 E4.97468
G1 X110.075 Y117.502 E4.97921
G1 X110.193 Y117.819 E4.98381
G1 X110.339 Y118.008 E4.98706
G1 X110.62 Y118.185 E4.99159
G1 X110.944 Y118.173 E4.996
M204 S500
G0 F3000 X110.639 Y117.29
M204 S100
G1 F1200 X110.523 Y117.499 E4.99926
G1 X110.673 Y117.781 E5.00361
G1 X111.126 Y117.625 E5.01014
G1 X110.968 Y117.299 E5.01507
G1 X110.639 Y117.29 E5.01955
M204 S500
G0 F3000 X112.611 Y112.412
M204 S100
G1 F1200 X116.692 Y110.963 E5.07854
G1 X116.911 Y111.889 E5.0915
G1 X116.842 Y111.953 E5.09278
G1 X116.818 Y112.016 E5.0937
G1 X116.725 Y112.479 E5.10013
G1 X112.682 Y112.753 E5.15532
G1 X112.611 Y112.412 E5.16006
M204 S500
G0 F3000 X114.426 Y112.214
M204 S100
G1 F1200 X116.391 Y111.516 E5.18847
G1 X116.455 Y111.789 E5.19228
G1 X116.45 Y111.797 E5.19241
G1 X116.406 Y111.933 E5.19436
G1 X116.376 Y112.081 E5.19642
G1 X114.426 Y112.214 E5.22304
M204 S500
G0 F3000 X112.675 Y122.249
M204 S100
G1 F1200 X116.628 Y122.517 E5.277
G1 X116.639 Y122.697 E5.27946
G1 X116.669 Y122.773 E5.28057
G1 X116.669 Y124.034 E5.29774
G1 X112.604 Y122.59 E5.3565
G1 X112.675 Y122.249 E5.36124
M204 S500
G0 F3000 X114.417 Y122.788
M204 S100
G1 F1200 X116.249 Y122.912 E5.38625
G1 X116.249 Y123.438 E5.39342
G1 X114.417 Y122.788 E5.41989
M204 S500
;MESH:HingePart.stl
G0 F3000 X111.674 Y118.196
M204 S100
;TYPE:WALL-OUTER
G1 F1200 X111.857 Y117.858 E5.42513
G1 X111.918 Y117.477 E5.43038
G1 X111.819 Y117 E5.43702
G1 X111.511 Y116.641 E5.44346
G1 X111.181 Y116.453 E5.44863
G1 X110.788 Y116.391 E5.45405
G1 X110.422 Y116.458 E5.45912
G1 X110.094 Y116.621 E5.46411
G1 X109.815 Y116.985 E5.47036
G1 X109.722 Y117.241 E5.47406
G1 X107.436 Y117.24 E5.5052
G1 X107.479 Y116.894 E5.50995
G1 X107.542 Y116.609 E5.51392
G1 X107.633 Y116.329 E5.51793
G1 X107.755 Y116.043 E5.52217
G1 X107.873 Y115.816 E5.52565
G1 X108.029 Y115.57 E5.52962
G1 X108.186 Y115.362 E5.53317
G1 X108.398 Y115.128 E5.53747
G1 X108.601 Y114.937 E5.54127
G1 X108.827 Y114.759 E5.54519
G1 X109.072 Y114.597 E5.54919
G1 X109.318 Y114.465 E5.55299
G1 X109.581 Y114.35 E5.5569
G1 X109.861 Y114.256 E5.56092
G1 X110.126 Y114.191 E5.56464
G1 X127.578 Y113.008 E5.80288
G1 X127.578 Y121.994 E5.92527
G1 X110.124 Y120.811 E6.16354
G1 X109.857 Y120.745 E6.16728
G1 X109.577 Y120.651 E6.17131
G1 X109.318 Y120.538 E6.17516
G1 X109.072 Y120.406 E6.17896
G1 X108.827 Y120.244 E6.18296
G1 X108.601 Y120.065 E6.18689
G1 X108.397 Y119.875 E6.19068
G1 X108.186 Y119.642 E6.19496
G1 X108.029 Y119.432 E6.19853
G1 X107.872 Y119.185 E6.20252
G1 X107.751 Y118.96 E6.206
G1 X107.625 Y118.651 E6.21055
G1 X107.542 Y118.394 E6.21422
G1 X107.48 Y118.121 E6.21804
G1 X107.435 Y117.762 E6.22296
G1 X109.721 Y117.762 E6.2541
G1 X109.819 Y118.025 E6.25792
G1 X110.054 Y118.322 E6.26308
G1 X110.388 Y118.531 E6.26845
G1 X110.667 Y118.602 E6.27237
G1 X111.037 Y118.591 E6.27741
G1 X111.39 Y118.448 E6.2826
G1 X111.674 Y118.196 E6.28777
M204 S500
G0 F3000 X112.137 Y118.718
G0 X111.731 Y118.999
G0 X111.169 Y119.225
G0 X110.583 Y119.246
G0 X108.243 Y118.419
G0 X107.858 Y118.14
M204 S100
;TYPE:SKIN
G1 F1200 X109.423 Y118.14 E6.30908
G1 X109.806 Y118.611 E6.31735
G1 X110.229 Y118.878 E6.32417
G1 X110.615 Y118.981 E6.32961
G1 X111.121 Y118.966 E6.3365
G1 X111.593 Y118.777 E6.34343
G1 X111.974 Y118.436 E6.35039
G1 X112.222 Y117.981 E6.35745
G1 X112.296 Y117.459 E6.36463
G1 X112.181 Y116.839 E6.37322
G1 X111.757 Y116.345 E6.38208
G1 X111.312 Y116.092 E6.38906
G1 X110.796 Y116.007 E6.39618
G1 X110.319 Y116.089 E6.40277
G1 X109.841 Y116.333 E6.41008
G1 X109.43 Y116.863 E6.41921
G1 X107.861 Y116.861 E6.44058
G1 X107.989 Y116.462 E6.44629
G1 X108.106 Y116.194 E6.45027
G1 X108.2 Y116.008 E6.45311
G1 X108.342 Y115.786 E6.4567
G1 X108.462 Y115.623 E6.45946
G1 X108.669 Y115.394 E6.46366
G1 X108.846 Y115.227 E6.46698
G1 X109.046 Y115.068 E6.47046
G1 X109.27 Y114.919 E6.47412
G1 X109.508 Y114.794 E6.47778
G1 X109.713 Y114.706 E6.48082
G1 X109.971 Y114.62 E6.48453
G1 X110.186 Y114.567 E6.48754
G1 X127.2 Y113.412 E6.71981
G1 X127.2 Y121.59 E6.83119
G1 X110.186 Y120.435 E7.06346
G1 X109.967 Y120.38 E7.06653
G1 X109.709 Y120.295 E7.07023
G1 X109.481 Y120.196 E7.07362
G1 X109.27 Y120.084 E7.07687
G1 X109.046 Y119.935 E7.08053
G1 X108.845 Y119.776 E7.08402
G1 X108.671 Y119.61 E7.0873
G1 X108.477 Y119.396 E7.09123
G1 X108.339 Y119.214 E7.09434
G1 X108.198 Y118.991 E7.09794
G1 X108.091 Y118.793 E7.101
G1 X108.003 Y118.581 E7.10413
G1 X107.858 Y118.14 E7.11045
M204 S500
G0 F3000 X108.253 Y118.35
M204 S100
G1 F1200 X110.105 Y120.202 E7.14613
M204 S500
G0 F3000 X110.759 Y120.263
M204 S100
G1 F1200 X108.847 Y118.35 E7.18296
M204 S500
G0 F3000 X108.847 Y118.461
G0 X110.134 Y119.186
G0 X110.165 Y119.074
M204 S100
G1 F1200 X111.396 Y120.306 E7.20668
M204 S500
