;FLAVOR:Marlin
;TIME:9356
;Filament used: 3.16917m
;Layer height: 0.15
;MINX:88.41
;MINY:99.508
;MINZ:0.2
;MAXX:197.287
;MAXY:136.467
;MAXZ:108.7
;TARGET_MACHINE.NAME:Creality Ender-3
;Generated with Cura_SteamEngine 5.6.0
M140 S65
M105
M190 S65
M104 S200
M105
M109 S200
M82 ;absolute extrusion mode
; Ender 3 Custom Start G-code
G92 E0 ; Reset Extruder
G28 ; Home all axes
G1 Z2.0 F3000 ; Move Z Axis up little to prevent scratching of Heat Bed
G1 X0.1 Y20 Z0.3 F5000.0 ; Move to start position
G1 X0.1 Y200.0 Z0.3 F1500.0 E15 ; Draw the first line
G1 X0.4 Y200.0 Z0.3 F5000.0 ; Move to side a little
G1 X0.4 Y20 Z0.3 F1500.0 E30 ; Draw the second line
G92 E0 ; Reset Extruder
G1 Z2.0 F3000 ; Move Z Axis up little to prevent scratching of Heat Bed
G1 X5 Y20 Z0.3 F5000.0 ; Move over to prevent blob squish
G92 E0
G92 E0
G1 F900 E-1.5
;LAYER_COUNT:723
;LAYER:0
M107
M204 S500
G1 F300 Z0.4
G0 F3000 X90.078 Y104.139 Z0.4
M204 S100
;TYPE:SKIRT
G1 F300 Z0.2
G1 F900 E0.04158
G1 F1200 X91.046 Y103.57 E0.0873
G1 X91.451 Y103.448 E0.10452
G1 X91.883 Y103.442 E0.12211
G1 X92.076 Y103.486 E0.13018
G1 X92.541 Y103.717 E0.15132
G1 X93.058 Y104.175 E0.17944
G1 X93.564 Y103.714 E0.20732
G1 X93.823 Y103.526 E0.22035
G1 X94.258 Y103.151 E0.24374
G1 X94.866 Y102.676 E0.27515
G1 X95.367 Y102.374 E0.29897
G1 X95.904 Y102.101 E0.3235
G1 X96.676 Y101.763 E0.35782
G1 X98.218 Y101.198 E0.42469
G1 X99.977 Y100.65 E0.49972
G1 X101.334 Y100.643 E0.55498
G1 X105.087 Y101.184 E0.70938
G1 X105.4 Y101.219 E0.7222
G1 X106.148 Y101.33 E0.753
G1 X107.342 Y101.486 E0.80203
G1 X107.921 Y101.573 E0.82587
G1 X109.54 Y101.854 E0.89278
G1 X109.9 Y101.894 E0.90753
G1 X110.391 Y101.975 E0.9278
G1 X111.925 Y102.177 E0.9908
G1 X113.225 Y102.389 E1.04444
G1 X116.657 Y102.875 E1.18558
G1 X122.252 Y103.895 E1.41717
G1 X126.452 Y104.726 E1.59151
G1 X127.543 Y104.961 E1.63696
G1 X132.774 Y106.154 E1.85543
G1 X133.049 Y106.288 E1.86789
G1 X133.344 Y106.533 E1.8835
G1 X133.503 Y106.896 E1.89964
G1 X133.545 Y107.17 E1.91093
G1 X133.544 Y107.721 E1.93337
G1 X133.474 Y108.016 E1.94571
G1 X133.3 Y108.356 E1.96127
G1 X132.985 Y108.591 E1.97727
G1 X132.732 Y108.692 E1.98836
G1 X129.42 Y109.463 E2.12683
G1 X127.36 Y109.917 E2.21273
G1 X125.06 Y110.394 E2.30838
G1 X121.744 Y111.033 E2.44589
G1 X116.592 Y111.974 E2.65916
G1 X112.485 Y112.575 E2.82817
G1 X111.763 Y112.663 E2.85779
G1 X108.527 Y113.181 E2.99124
G1 X101.227 Y114.206 E3.29142
G1 X99.963 Y114.192 E3.34289
G1 X97.696 Y113.462 E3.43987
G1 X96.225 Y112.884 E3.50423
G1 X95.618 Y112.596 E3.53159
G1 X95.088 Y112.3 E3.55631
G1 X94.649 Y112.007 E3.5778
G1 X94.295 Y111.725 E3.59623
G1 X94 Y111.465 E3.61224
G1 X93.673 Y111.199 E3.62941
G1 X93.047 Y110.663 E3.66296
G1 X92.554 Y111.102 E3.68984
G1 X92.184 Y111.299 E3.70691
G1 X91.892 Y111.395 E3.71943
G1 X91.447 Y111.393 E3.73755
G1 X90.988 Y111.253 E3.75709
G1 X90.284 Y110.805 E3.79107
G1 X90.133 Y110.687 E3.79887
G1 X89.494 Y110.227 E3.83094
G1 X89.251 Y109.991 E3.84473
G1 X88.939 Y109.538 E3.86713
G1 X88.734 Y109.017 E3.88993
G1 X88.621 Y108.534 E3.91013
G1 X88.465 Y107.954 E3.93458
G1 X88.41 Y107.215 E3.96476
G1 X88.482 Y106.773 E3.98299
G1 X88.69 Y106.061 E4.0132
G1 X89.211 Y105.148 E4.056
G1 X90.078 Y104.139 E4.11017
M204 S500
G0 F3000 X90.622 Y104.793
M204 S100
G1 F1200 X91.385 Y104.345 E4.1462
G1 X91.637 Y104.269 E4.15692
G1 X91.791 Y104.282 E4.16322
G1 X92.066 Y104.418 E4.17571
G1 X92.374 Y104.692 E4.19249
G1 X92.625 Y105.096 E4.21186
G1 X92.665 Y105.251 E4.21838
G1 X92.389 Y105.72 E4.24054
G1 X92.262 Y106.035 E4.25437
G1 X92.187 Y106.343 E4.26728
G1 X92.122 Y106.669 E4.28081
G1 X92.06 Y106.781 E4.28603
G1 X91.971 Y106.816 E4.28992
G1 X91.971 Y108.019 E4.33891
G1 X92.027 Y108.037 E4.3413
G1 X92.11 Y108.165 E4.34752
G1 X92.209 Y108.634 E4.36703
G1 X92.294 Y108.902 E4.37848
G1 X92.448 Y109.237 E4.3935
G1 X92.643 Y109.547 E4.40841
G1 X92.681 Y109.695 E4.41463
G1 X92.537 Y109.993 E4.42811
G1 X92.072 Y110.406 E4.45343
G1 X91.789 Y110.557 E4.4665
G1 X91.633 Y110.571 E4.47287
G1 X91.34 Y110.482 E4.48534
G1 X90.735 Y110.097 E4.51454
G1 X90.647 Y110.022 E4.51925
G1 X90.08 Y109.625 E4.54744
G1 X89.894 Y109.444 E4.55801
G1 X89.683 Y109.139 E4.57311
G1 X89.552 Y108.827 E4.58689
G1 X89.433 Y108.316 E4.60825
G1 X89.297 Y107.81 E4.62959
G1 X89.256 Y107.251 E4.65241
G1 X89.302 Y106.953 E4.66469
G1 X89.45 Y106.423 E4.6871
G1 X89.89 Y105.643 E4.72356
G1 X90.622 Y104.793 E4.76924
M204 S500
G0 F3000 X90.35 Y104.466
M204 S100
G1 F1200 X91.215 Y103.958 E4.81009
G1 X91.516 Y103.867 E4.8229
G1 X91.889 Y103.862 E4.83809
G1 X92.304 Y104.068 E4.85695
G1 X92.7 Y104.419 E4.8785
G1 X92.959 Y104.837 E4.89852
G1 X93.098 Y104.68 E4.90706
G1 X93.303 Y104.518 E4.9177
G1 X93.811 Y104.054 E4.94572
G1 X94.084 Y103.856 E4.95945
G1 X94.517 Y103.482 E4.98275
G1 X95.125 Y103.007 E5.01417
G1 X95.582 Y102.735 E5.03582
G1 X96.072 Y102.486 E5.0582
G1 X96.844 Y102.148 E5.09252
G1 X98.343 Y101.599 E5.15753
G1 X100.042 Y101.07 E5.22999
G1 X101.274 Y101.059 E5.28016
G1 X105.027 Y101.6 E5.43456
G1 X105.339 Y101.635 E5.44734
G1 X106.087 Y101.745 E5.47813
G1 X107.279 Y101.901 E5.52708
G1 X107.849 Y101.987 E5.55056
G1 X109.471 Y102.268 E5.61759
G1 X109.832 Y102.309 E5.63238
G1 X110.323 Y102.389 E5.65264
G1 X111.857 Y102.592 E5.71565
G1 X113.157 Y102.804 E5.76929
G1 X116.582 Y103.288 E5.91014
G1 X122.17 Y104.307 E6.14144
G1 X126.364 Y105.137 E6.31553
G1 X127.449 Y105.37 E6.36072
G1 X131.195 Y106.231 E6.51723
G1 X132.633 Y106.553 E6.57724
G1 X132.865 Y106.666 E6.58775
G1 X132.998 Y106.791 E6.59518
G1 X133.125 Y107.169 E6.61142
G1 X133.124 Y107.67 E6.63182
G1 X133.065 Y107.919 E6.64224
G1 X132.973 Y108.076 E6.64965
G1 X132.637 Y108.283 E6.66572
G1 X129.33 Y109.053 E6.80398
G1 X127.275 Y109.506 E6.88967
G1 X124.981 Y109.982 E6.98508
G1 X121.669 Y110.62 E7.12242
G1 X116.531 Y111.558 E7.3351
G1 X112.434 Y112.158 E7.50371
G1 X111.702 Y112.247 E7.53374
G1 X108.468 Y112.765 E7.66711
G1 X101.232 Y113.786 E7.96468
G1 X100.032 Y113.773 E8.01355
G1 X97.85 Y113.071 E8.10688
G1 X96.379 Y112.493 E8.17124
G1 X95.823 Y112.229 E8.1963
G1 X95.293 Y111.933 E8.22102
G1 X94.911 Y111.678 E8.23973
G1 X94.557 Y111.396 E8.25816
G1 X94.265 Y111.139 E8.274
G1 X93.946 Y110.88 E8.29073
G1 X92.974 Y110.048 E8.34283
G1 X92.816 Y110.307 E8.35518
G1 X92.312 Y110.755 E8.38264
G1 X91.898 Y110.975 E8.40173
G1 X91.511 Y110.973 E8.41749
G1 X91.165 Y110.868 E8.43221
G1 X90.51 Y110.451 E8.46383
G1 X90.39 Y110.355 E8.47009
G1 X89.787 Y109.926 E8.50022
G1 X89.573 Y109.718 E8.51238
G1 X89.311 Y109.338 E8.53117
G1 X89.143 Y108.922 E8.54944
G1 X89.027 Y108.425 E8.57022
G1 X88.881 Y107.882 E8.59312
G1 X88.833 Y107.234 E8.61958
G1 X88.897 Y106.84 E8.63583
G1 X89.071 Y106.241 E8.66123
G1 X89.55 Y105.396 E8.70078
G1 X90.35 Y104.466 E8.75074
M204 S500
G1 F900 E7.25074
G1 F300 Z0.4
G0 F3000 X92.774 Y105.893 Z0.4
M204 S100
G1 F300 Z0.2
G1 F900 E8.79231
G1 F1200 X93.107 Y105.326 E8.81909
G1 X93.358 Y105.01 E8.83552
G1 X93.571 Y104.842 E8.84657
G1 X94.058 Y104.394 E8.87351
G1 X94.347 Y104.184 E8.88806
G1 X94.777 Y103.812 E8.91121
G1 X95.34 Y103.368 E8.94041
G1 X95.797 Y103.096 E8.96207
G1 X96.24 Y102.871 E8.9823
G1 X97.012 Y102.533 E9.01662
G1 X98.468 Y102 E9.07975
G1 X100.108 Y101.489 E9.1497
G1 X101.214 Y101.475 E9.19474
G1 X104.967 Y102.016 E9.34915
G1 X105.278 Y102.051 E9.36189
G1 X106.026 Y102.16 E9.39267
G1 X107.216 Y102.316 E9.44154
G1 X107.777 Y102.401 E9.46465
G1 X109.402 Y102.683 E9.53181
G1 X109.765 Y102.724 E9.54668
G1 X110.256 Y102.803 E9.56693
G1 X111.789 Y103.006 E9.6299
G1 X113.098 Y103.22 E9.68391
G1 X116.507 Y103.701 E9.8241
G1 X122.088 Y104.719 E10.05511
G1 X126.276 Y105.548 E10.22896
G1 X127.355 Y105.779 E10.27389
G1 X131.103 Y106.641 E10.4305
G1 X132.541 Y106.963 E10.4905
G1 X132.651 Y107.028 E10.49571
G1 X132.705 Y107.168 E10.50182
G1 X132.704 Y107.669 E10.52222
G1 X132.665 Y107.791 E10.52743
G1 X132.542 Y107.874 E10.53347
G1 X129.24 Y108.643 E10.67153
G1 X127.19 Y109.095 E10.75701
G1 X124.902 Y109.57 E10.85217
G1 X121.594 Y110.207 E10.98935
G1 X116.47 Y111.142 E11.20144
G1 X112.383 Y111.741 E11.36964
G1 X111.641 Y111.831 E11.40008
G1 X108.409 Y112.349 E11.53337
G1 X101.236 Y113.366 E11.82838
G1 X100.101 Y113.354 E11.8746
G1 X98.004 Y112.68 E11.96429
G1 X96.533 Y112.102 E12.02865
G1 X96.028 Y111.862 E12.05142
G1 X95.498 Y111.566 E12.07613
G1 X95.173 Y111.349 E12.09205
G1 X94.819 Y111.067 E12.11048
G1 X94.53 Y110.813 E12.12615
G1 X94.218 Y110.56 E12.1425
G1 X93.43 Y109.889 E12.18465
G1 X93.178 Y109.61 E12.19996
G1 X92.814 Y109.027 E12.22794
G1 X92.684 Y108.74 E12.24077
G1 X92.358 Y107.523 E12.29208
G1 X92.357 Y107.312 E12.30067
G1 X92.669 Y106.148 E12.34974
G1 X92.774 Y105.893 E12.36097
M204 S500
G1 F900 E10.86097
G1 F300 Z0.4
G0 F3000 X97.513 Y107.398 Z0.4
M204 S100
G1 F300 Z0.2
G1 F900 E12.40255
G1 F1200 X97.57 Y107.624 E12.41204
G1 X97.678 Y107.834 E12.42165
G1 X97.789 Y107.95 E12.42819
G1 X98.042 Y108.093 E12.44002
G1 X98.273 Y108.105 E12.44944
G1 X98.6 Y107.996 E12.46348
G1 X98.825 Y107.754 E12.47693
G1 X98.903 Y107.529 E12.48663
G1 X98.903 Y107.306 E12.49571
G1 X98.828 Y107.086 E12.50518
G1 X98.654 Y106.866 E12.5166
G1 X98.443 Y106.767 E12.52609
G1 X98.224 Y106.731 E12.53513
G1 X98.004 Y106.768 E12.54421
G1 X97.794 Y106.883 E12.55396
G1 X97.601 Y107.129 E12.56669
G1 X97.513 Y107.398 E12.57822
M204 S500
G0 F3000 X98.07 Y107.21
M204 S100
G1 F1200 X97.95 Y107.412 E12.58779
G1 X98.047 Y107.613 E12.59687
G1 X98.164 Y107.679 E12.60234
G1 X98.31 Y107.669 E12.6083
G1 X98.418 Y107.602 E12.61348
G1 X98.483 Y107.457 E12.61995
G1 X98.453 Y107.288 E12.62694
G1 X98.386 Y107.204 E12.63131
G1 X98.226 Y107.156 E12.63812
G1 X98.07 Y107.21 E12.64484
M204 S500
G1 F900 E11.14484
G1 F300 Z0.4
G0 F3000 X155.395 Y107.114 Z0.4
M204 S100
G1 F300 Z0.2
G1 F900 E12.68641
G1 F1200 X155.465 Y106.819 E12.69876
G1 X155.639 Y106.478 E12.71435
G1 X155.961 Y106.242 E12.7306
G1 X156.217 Y106.141 E12.74181
G1 X158.125 Y105.716 E12.82141
G1 X161.3 Y104.987 E12.95406
G1 X162.238 Y104.785 E12.99313
G1 X166.641 Y103.915 E13.17589
G1 X171.334 Y103.06 E13.37014
G1 X173.821 Y102.7 E13.47246
G1 X175.622 Y102.451 E13.5465
G1 X177.174 Y102.196 E13.61054
G1 X178.491 Y102.024 E13.66463
G1 X179.082 Y101.925 E13.68903
G1 X179.366 Y101.894 E13.70066
G1 X180.741 Y101.657 E13.75748
G1 X181.736 Y101.507 E13.79845
G1 X182.651 Y101.387 E13.83603
G1 X183.546 Y101.254 E13.87288
G1 X183.772 Y101.229 E13.88214
G1 X187.681 Y100.673 E14.04291
G1 X188.828 Y100.681 E14.08962
G1 X190.613 Y101.237 E14.16575
G1 X192.127 Y101.79 E14.23139
G1 X192.726 Y102.048 E14.25794
G1 X193.211 Y102.286 E14.27994
G1 X193.645 Y102.524 E14.3001
G1 X194.027 Y102.769 E14.31858
G1 X194.572 Y103.201 E14.3469
G1 X194.937 Y103.515 E14.3665
G1 X195.334 Y103.811 E14.38667
G1 X195.662 Y104.114 E14.40485
G1 X195.923 Y104.329 E14.41862
G1 X196.204 Y104.625 E14.43524
G1 X196.471 Y104.984 E14.45346
G1 X196.795 Y105.568 E14.48065
G1 X196.969 Y106.011 E14.50003
G1 X197.071 Y106.441 E14.51803
G1 X197.278 Y107.188 E14.54959
G1 X197.287 Y107.628 E14.56752
G1 X197.083 Y108.37 E14.59885
G1 X197.031 Y108.612 E14.60893
G1 X196.871 Y109.099 E14.6298
G1 X196.666 Y109.521 E14.64891
G1 X196.273 Y110.13 E14.67842
G1 X195.899 Y110.544 E14.70114
G1 X195.493 Y110.884 E14.7227
G1 X195.508 Y111.638 E14.75341
G1 X195.442 Y111.94 E14.766
G1 X195.309 Y112.214 E14.7784
G1 X195.176 Y112.359 E14.78642
G1 X194.856 Y112.572 E14.80207
G1 X194.532 Y112.657 E14.81571
G1 X194.289 Y112.675 E14.82563
G1 X194.027 Y112.74 E14.83662
G1 X193.793 Y112.847 E14.8471
G1 X193.584 Y112.985 E14.8573
G1 X193.333 Y113.222 E14.87136
G1 X193.098 Y113.607 E14.88972
G1 X193.013 Y113.982 E14.90538
G1 X193.014 Y114.399 E14.92236
G1 X193.083 Y114.707 E14.93521
G1 X193.296 Y115.118 E14.95406
G1 X193.585 Y115.392 E14.97028
G1 X193.918 Y115.606 E14.9864
G1 X194.297 Y115.701 E15.00231
G1 X194.591 Y115.72 E15.01431
G1 X194.884 Y115.812 E15.02681
G1 X195.148 Y115.972 E15.03938
G1 X195.278 Y116.116 E15.04728
G1 X195.464 Y116.458 E15.06313
G1 X195.519 Y116.795 E15.07704
G1 X195.369 Y122.155 E15.29539
G1 X195.056 Y127.511 E15.51386
G1 X194.578 Y132.877 E15.73323
G1 X194.535 Y133.168 E15.74521
G1 X194.443 Y133.55 E15.76121
G1 X194.352 Y133.826 E15.77304
G1 X194.209 Y134.163 E15.78795
G1 X194.029 Y134.496 E15.80336
G1 X193.843 Y134.78 E15.81718
G1 X193.628 Y135.054 E15.83137
G1 X193.399 Y135.299 E15.84502
G1 X193.184 Y135.497 E15.85692
G1 X192.87 Y135.74 E15.87309
G1 X192.644 Y135.886 E15.88405
G1 X192.277 Y136.084 E15.90103
G1 X191.996 Y136.203 E15.91346
G1 X191.636 Y136.321 E15.92888
G1 X191.337 Y136.392 E15.9414
G1 X190.98 Y136.445 E15.95609
G1 X190.624 Y136.467 E15.97062
G1 X190.282 Y136.459 E15.98455
G1 X190.013 Y136.432 E15.99556
G1 X189.619 Y136.36 E16.01187
G1 X189.273 Y136.261 E16.02652
G1 X189.018 Y136.166 E16.0376
G1 X188.643 Y135.989 E16.05449
G1 X188.347 Y135.814 E16.06849
G1 X188.07 Y135.617 E16.08233
G1 X187.809 Y135.395 E16.09628
G1 X187.566 Y135.151 E16.1103
G1 X187.348 Y134.891 E16.12412
G1 X187.15 Y134.612 E16.13805
G1 X185.09 Y131.182 E16.30098
G1 X183.325 Y127.588 E16.46402
G1 X181.865 Y123.861 E16.62702
G1 X180.743 Y120.093 E16.78711
G1 X179.916 Y116.119 E16.9524
G1 X179.535 Y113 E17.08035
G1 X177.038 Y112.603 E17.1833
G1 X176.381 Y112.521 E17.21027
G1 X171.219 Y111.758 E17.42275
G1 X167.179 Y111.021 E17.58997
G1 X163.749 Y110.363 E17.73219
G1 X161.39 Y109.873 E17.8303
G1 X159.399 Y109.435 E17.91331
G1 X156.156 Y108.681 E18.04889
G1 X155.881 Y108.544 E18.0614
G1 X155.591 Y108.298 E18.07689
G1 X155.435 Y107.936 E18.09294
G1 X155.394 Y107.668 E18.10398
G1 X155.395 Y107.114 E18.12654
M204 S500
G0 F3000 X156.274 Y107.044
M204 S100
G1 F1200 X156.399 Y106.961 E18.13265
G1 X158.307 Y106.536 E18.21225
G1 X161.488 Y105.805 E18.34516
G1 X162.4 Y105.609 E18.38314
G1 X166.791 Y104.741 E18.5654
G1 X171.454 Y103.892 E18.7584
G1 X173.937 Y103.532 E18.86057
G1 X175.738 Y103.283 E18.93461
G1 X177.282 Y103.028 E18.99833
G1 X178.629 Y102.852 E19.05365
G1 X179.173 Y102.761 E19.07611
G1 X179.475 Y102.728 E19.08848
G1 X180.867 Y102.487 E19.146
G1 X181.844 Y102.339 E19.18624
G1 X182.77 Y102.218 E19.22427
G1 X183.636 Y102.09 E19.25991
G1 X183.87 Y102.065 E19.2695
G1 X187.738 Y101.509 E19.42862
G1 X188.698 Y101.521 E19.46772
G1 X190.325 Y102.027 E19.5371
G1 X191.795 Y102.562 E19.6008
G1 X192.375 Y102.811 E19.6265
G1 X192.807 Y103.022 E19.64608
G1 X193.191 Y103.232 E19.6639
G1 X193.573 Y103.477 E19.68238
G1 X194.024 Y103.837 E19.70588
G1 X194.42 Y104.178 E19.72716
G1 X194.764 Y104.429 E19.7445
G1 X195.113 Y104.751 E19.76384
G1 X195.356 Y104.947 E19.77655
G1 X195.537 Y105.136 E19.7872
G1 X195.74 Y105.398 E19.8007
G1 X196.016 Y105.883 E19.82342
G1 X196.159 Y106.233 E19.83882
G1 X196.255 Y106.643 E19.85597
G1 X196.44 Y107.312 E19.88423
G1 X196.445 Y107.524 E19.89287
G1 X196.263 Y108.184 E19.92074
G1 X196.209 Y108.436 E19.93124
G1 X196.112 Y108.739 E19.94419
G1 X195.954 Y109.074 E19.95928
G1 X195.642 Y109.575 E19.98331
G1 X195.359 Y109.9 E20.00086
G1 X194.645 Y110.498 E20.03878
G1 X194.667 Y111.606 E20.08391
G1 X194.63 Y111.729 E20.08914
G1 X194.472 Y111.819 E20.09654
G1 X194.16 Y111.841 E20.10928
G1 X193.747 Y111.945 E20.12662
G1 X193.387 Y112.11 E20.14275
G1 X193.062 Y112.323 E20.15857
G1 X192.748 Y112.619 E20.17614
G1 X192.573 Y112.855 E20.18811
G1 X192.42 Y113.104 E20.20001
G1 X192.269 Y113.461 E20.21579
G1 X192.177 Y113.874 E20.23302
G1 X192.163 Y114.193 E20.24602
G1 X192.178 Y114.509 E20.25891
G1 X192.267 Y114.907 E20.27551
G1 X192.38 Y115.176 E20.28739
G1 X192.524 Y115.455 E20.30018
G1 X192.756 Y115.765 E20.31595
G1 X193.065 Y116.056 E20.33323
G1 X193.413 Y116.281 E20.35011
G1 X193.769 Y116.436 E20.36592
G1 X194.067 Y116.51 E20.37842
G1 X194.483 Y116.555 E20.39546
G1 X194.602 Y116.603 E20.40068
G1 X194.679 Y116.771 E20.40821
G1 X194.531 Y122.107 E20.62558
G1 X194.22 Y127.437 E20.84298
G1 X193.746 Y132.759 E21.06056
G1 X193.71 Y133.012 E21.07096
G1 X193.643 Y133.292 E21.08269
G1 X193.565 Y133.533 E21.093
G1 X193.451 Y133.801 E21.10486
G1 X193.324 Y134.039 E21.11584
G1 X193.177 Y134.267 E21.12689
G1 X193.011 Y134.484 E21.13802
G1 X192.828 Y134.683 E21.14903
G1 X192.641 Y134.857 E21.15943
